<?xml version="1.0" encoding="UTF-8"?>
<map version="1.10" tiledversion="1.12.2" orientation="orthogonal" renderorder="right-down" width="80" height="50" tilewidth="16" tileheight="16" infinite="0" nextlayerid="17" nextobjectid="35">
 <tileset firstgid="1" source=":/automap-tiles.tsx"/>
 <tileset firstgid="6" source="../../Downloads/Pixel Crawler - Free Pack 2.11/Wall_Tiles.tsx"/>
 <tileset firstgid="631" name="Walls" tilewidth="16" tileheight="16" tilecount="2100" columns="42">
  <image source="../../Downloads/Pixel Crawler - Free Pack 2.11/Pixel Crawler - Free Pack/Environment/Structures/Buildings/Walls.png" width="672" height="800"/>
 </tileset>
 <tileset firstgid="2731" source="../../Downloads/Floors_Tiles.tsx"/>
 <tileset firstgid="3381" source="../../Downloads/Water_tiles.tsx"/>
 <tileset firstgid="4006" source="../../Downloads/Size_02.tsx"/>
 <tileset firstgid="4134" source="../../Downloads/Size_03.tsx"/>
 <tileset firstgid="4290" source="../../Downloads/Size_04.tsx"/>
 <tileset firstgid="4658" source="../../Downloads/Size_05.tsx"/>
 <tileset firstgid="5302" source="../../Downloads/Props.tsx"/>
 <tileset firstgid="5927" source="../../Downloads/Roofs.tsx"/>
 <tileset firstgid="6552" source="../../Downloads/Shadows.tsx"/>
 <tileset firstgid="7177" source="../../Downloads/Shadowsstr.tsx"/>
 <tileset firstgid="7802" source="../../Downloads/Furniture.tsx"/>
 <tileset firstgid="10502" source="../../Downloads/Vegetation.tsx"/>
 <tileset firstgid="11177" source="../../Downloads/Rocks.tsx"/>
 <tileset firstgid="11424" source="../../Downloads/Idle-Sheet.tsx"/>
 <objectgroup id="16" name="Capa de Objetos 1">
  <object id="6" name="edificio" type="collision" x="510.667" y="253.333">
   <polygon points="0,0 0.666667,176 306.667,176 307.333,-1.33333"/>
  </object>
  <object id="7" name="casa" type="collision" x="209.333" y="242">
   <polygon points="0,0 -2,106 14.6667,108.667 13.3333,124.667 78.6667,126 78,108 140,108.667 142,0"/>
  </object>
  <object id="10" name="hotel" type="collision" x="38" y="465" width="248" height="179"/>
  <object id="12" x="947" y="788">
   <polygon points="0,0 60,-2 61,11 -1,8"/>
  </object>
  <object id="14" name="rio" type="collision" x="947" y="588" width="332" height="212"/>
  <object id="15" name="pet" type="collision" x="1028" y="95" width="145" height="156"/>
  <object id="16" x="810" y="163">
   <point/>
  </object>
  <object id="17" x="805" y="166">
   <point/>
  </object>
  <object id="18" x="804" y="170">
   <point/>
  </object>
  <object id="19" x="802.5" y="156" width="19" height="22"/>
  <object id="20" x="791" y="143.5" width="40.5" height="45.5"/>
  <object id="21" x="647" y="173.5" width="35" height="40"/>
  <object id="22" x="574" y="146" width="26" height="34.5"/>
  <object id="23" x="665.5" y="64.5" width="52" height="47.5"/>
  <object id="24" x="706" y="129" width="16.5" height="16"/>
  <object id="25" x="731.5" y="120.5" width="14" height="23.5"/>
  <object id="26" x="886.5" y="72" width="37" height="44.5"/>
  <object id="27" x="844.5" y="72" width="20.5" height="27"/>
  <object id="28" x="826.5" y="20.5" width="28" height="34"/>
  <object id="29" x="761.5" y="37" width="23" height="28.5"/>
  <object id="30" x="852" y="119" width="25.5" height="41"/>
  <object id="31" x="877" y="165.5" width="30.5" height="30.5"/>
  <object id="32" x="901.5" y="148.5" width="24.5" height="45"/>
  <object id="33" x="950.5" y="183" width="28" height="42"/>
  <object id="34" x="833.5" y="179.5" width="12.5" height="11.5"/>
 </objectgroup>
 <layer id="1" name="Capa de patrones 1" width="80" height="50" offsetx="0.0833333" offsety="0.166667">
  <data encoding="csv">
2982,2982,2983,2984,3007,3007,3007,3007,3007,3007,3007,3007,3007,3007,3007,3007,3007,2982,2982,2982,2982,2982,2982,2982,2982,2982,2982,2982,2982,2982,2982,2982,2982,2982,2982,2982,2982,2982,2982,2982,2982,2982,2982,2982,2982,2982,2982,2982,2982,2982,2982,2982,2982,2982,2982,2982,2982,2982,2982,2982,2982,2982,2982,2982,2982,2982,2982,2982,2982,2982,2982,2982,2982,2982,2982,2982,2982,2983,2984,2982,
3007,3007,2982,2982,2982,2982,2982,2982,2982,2982,2982,2982,2982,2982,2982,2982,2982,2982,2982,2982,2982,2982,2982,2982,2982,2982,2982,2982,2982,2982,2982,2982,2982,2982,2982,2982,2982,2982,2982,2983,2984,2984,2984,2984,2984,2984,2984,2984,2984,2984,2984,2984,2984,2984,2984,2984,2984,2984,2984,2984,2984,2984,2984,2984,2984,2984,2984,2984,2984,2984,2984,2984,2984,2984,2984,2984,2984,2984,3009,3007,
2982,2982,2982,2982,2982,2982,2982,2982,2982,2983,2984,3007,3007,3007,3007,3007,3007,3007,2982,2983,2984,2984,2984,2984,2984,2984,2984,2984,2984,2984,2984,2984,2984,2984,2984,2984,2984,2984,2984,2984,3009,3009,3009,3009,3009,3009,3009,3009,3009,3009,3009,3009,3009,3009,3009,3009,3009,3009,3009,3009,3009,3009,3009,3009,3009,3009,3009,3009,3009,3009,3009,3009,3009,3009,3009,3009,3009,3009,2984,2984,
3007,3007,3007,3007,3007,3007,3007,3007,3007,2982,2982,2982,2982,2982,2982,2982,2982,2982,2982,2982,2983,2984,3009,3009,3009,3009,3009,3009,3009,3009,3009,3009,3009,3009,3009,3009,3009,3009,3009,3009,3009,3009,3009,3009,3009,3009,3009,3009,3009,3009,3009,3009,3009,3009,3009,3009,3009,3009,3009,3009,3009,3009,3009,3009,3009,3009,3009,3009,3009,3009,3009,3009,3009,3009,3009,3009,3009,3009,3009,3009,
3009,3009,3009,3009,2984,2984,2984,2984,2984,2982,2983,2984,2984,2984,2984,2984,2984,2984,2984,2984,2984,2984,2984,2984,2984,2982,2982,2982,2982,2982,2982,2982,2982,2982,2982,2982,2982,2982,2982,2982,2982,2982,2982,2982,2982,3007,3007,3007,3007,3007,3007,3007,3007,3007,3007,3007,3007,3007,3007,3007,3007,3007,3007,3007,3007,3007,3007,3007,3007,3007,3008,3009,2984,2984,2984,2984,2984,2984,2984,2984,
2982,2982,3007,3008,3009,3009,2982,2983,2984,2984,2984,3009,3009,3009,3009,3009,3009,3009,3009,3009,3009,3009,3009,3009,3009,3007,3007,3007,3007,3007,3007,3007,3007,3007,3007,3007,3007,3007,3007,3007,3007,3007,3007,3007,3007,3008,3009,3009,3009,3009,3009,3009,3009,3009,3009,3009,3009,3009,3009,3009,3009,3009,3009,3009,3009,3009,3009,3009,3009,3009,3009,3009,3009,3009,3009,3009,3009,3009,3009,3009,
2982,2982,2983,2984,2984,2984,2984,2984,3009,3009,3009,3007,3007,3007,3007,3007,3007,3007,3007,3007,3007,3007,3007,3008,3009,3007,3008,3009,3007,3007,3007,3007,3007,3007,3007,3007,3007,3007,3007,3007,3007,3007,2982,2983,2984,3007,3007,3007,3007,3007,3007,3007,3007,2982,2982,2982,2982,2982,2982,2982,2982,2982,2982,2982,2982,2982,2982,2982,2982,2982,2982,2982,2982,2982,2982,2982,2982,2982,2982,2982,
2984,2984,2984,3009,3009,3009,3009,3009,3007,3007,3008,3009,2984,2984,2984,2984,2984,3007,3008,3009,2984,2982,2982,2982,2982,2982,2982,2982,2982,2982,2982,2982,2982,2982,2982,2982,2982,2982,2982,2982,2982,2982,2982,2982,2982,2982,2982,2982,2982,2982,2982,2982,2982,2983,2984,3007,3007,3007,3007,3007,3007,3007,3007,3007,3007,3007,3007,3007,3007,3007,3007,3007,3007,3007,3007,3007,3007,3007,3007,3007,
2982,2982,2982,2982,2982,2982,2982,2982,2982,2982,2982,2982,2982,2982,2982,2982,2982,2982,2982,2982,2982,3007,3007,3007,3007,3007,3007,3007,3007,3007,3007,3007,3007,3007,3007,3007,3007,3007,3007,3007,3007,3007,3007,3007,3007,3007,3007,3007,3007,2982,2983,2984,2984,2984,2984,3009,3009,3009,3009,3009,3009,3009,3009,3009,3009,3007,3008,3009,3009,3009,3009,3009,3009,3009,2982,2983,2984,2984,2984,2984,
3007,3007,3007,3007,3007,3007,3007,3007,2982,2982,2982,2982,2982,2982,2982,2982,2982,2982,2982,2982,2982,2982,2982,2982,2982,2982,2982,2982,2982,2982,2982,2982,2982,2982,2982,2982,2982,2982,2982,2982,2982,2982,2982,2982,2982,2982,2982,2982,2982,2982,2982,2982,2982,2982,2982,2982,2982,2982,2982,2982,2982,2982,2982,2982,2982,2982,2982,2982,2982,2982,2983,2984,2984,2984,2984,2984,3009,3009,3009,3009,
3009,2982,2982,3007,3008,3009,2982,2982,3007,3007,3007,3007,3007,3007,3007,3007,3007,3007,3007,3007,3007,3007,3007,3007,3007,3007,3007,3007,3007,3007,3007,3007,3007,3007,3007,3007,3007,3007,3007,3007,3007,3007,3007,3007,3007,3007,3007,3007,3007,3007,3007,3007,3007,3007,3007,3007,3007,3007,3007,3007,3007,3007,3007,3007,3007,2982,2983,2984,2984,2984,2984,3009,3009,3009,3009,3009,3007,3007,3007,3007,
2984,3007,3007,3008,3009,2984,2984,2982,2982,2982,2982,2982,2982,2982,2982,2982,2982,2982,2982,2982,2982,2982,2982,2982,2982,2982,2982,2982,2982,2982,2982,2982,2982,2982,2982,2982,2982,2982,2982,2982,2982,2982,2982,3007,3008,3009,3009,3009,3009,3009,3009,3009,3009,3009,3009,3009,3009,3009,3009,3009,3009,3009,3009,2982,2983,2984,2984,3009,3009,3009,3009,3009,3009,3009,3009,3009,3009,3009,3009,3009,
2982,2982,2982,2982,2982,2982,2982,2982,3007,3007,3007,3007,3007,3007,3007,3007,3007,3007,3007,3007,3007,3007,3007,3007,3007,3007,3007,3007,3007,3007,3007,3007,3007,3007,3007,3007,3007,3007,3007,3007,3007,3007,3007,3007,3007,3007,3007,3007,3007,3007,3008,3009,2982,2982,2982,2982,2982,2982,2982,2982,2982,2982,2982,2983,2984,3009,3009,2982,2982,2982,2982,2982,2982,2982,2982,2982,2982,2982,2982,2982,
3007,3007,3007,3007,3007,3007,3007,3007,3008,3009,3009,3009,3009,3009,3009,3009,3009,3009,3009,3009,3009,3009,3009,3009,3009,3009,3009,3009,3009,3009,2982,2982,2982,2983,2984,3009,2984,2984,2984,2984,2984,2984,2984,2984,2984,2984,2984,2984,2984,2984,2984,2984,2984,2984,2984,2984,2984,2984,2984,2984,2984,2982,2983,2984,3009,2984,2984,2984,2984,2984,2984,2984,2984,2984,2984,2984,2984,2984,2984,2984,
3007,2982,2983,2982,2983,2984,2982,2982,3007,3007,3007,3007,3007,3007,3007,3007,3007,3007,3007,3007,3007,3007,3008,3009,3007,3007,3007,3008,3009,2983,3007,3007,2982,2982,2982,2983,2984,2984,3009,3009,3009,3009,3009,3009,3009,3009,3009,3009,3009,3009,3009,3009,3009,3009,3009,3009,3009,3009,3009,2982,2983,2984,2984,3009,3009,3009,3009,3009,3009,3009,3009,3009,3009,3009,3009,3009,3009,3009,3009,3009,
2982,2983,2984,2982,2983,2984,2984,2984,2984,2984,2984,2984,2984,2984,2984,2984,2984,2984,2984,2984,2984,2984,2984,2984,2984,2984,2984,2984,2984,2984,2984,3007,3007,3007,3007,2982,2982,2983,2984,2984,2984,2984,2984,2984,2984,2984,2984,2984,2984,2984,2984,2984,2984,2984,2984,2984,2984,2984,2982,2983,2984,3009,3009,2984,2984,2984,2984,2984,2984,2984,2984,2984,2984,2984,2984,2984,2984,2984,2984,2984,
2982,2983,2982,2982,2983,2984,2982,2982,2983,2984,3009,3009,3009,3009,3009,3009,3009,3009,3009,3009,3009,3009,3009,3009,3009,3009,3009,3009,3009,3009,3009,3009,3009,3009,3009,3007,3007,2982,2982,2983,2984,3009,3009,3009,3009,3009,3009,3009,3009,3009,3009,3009,3009,3009,3009,3009,3009,2982,2983,2984,2984,3009,3009,3009,3009,3009,3009,3009,3009,3009,3009,3009,3009,3009,3009,3009,3009,3009,3009,3009,
2982,2982,3007,2982,2982,2982,3007,3007,2982,2982,2982,2982,2982,2983,2984,3007,3007,3007,3007,3007,3007,3007,3007,3007,3007,3007,3007,3007,3007,3007,3007,3007,3007,3007,3007,3007,3007,3007,3007,2982,2982,2982,2983,2984,3007,3007,2982,2982,2982,2982,2982,2982,2982,2982,2982,2983,2984,2984,2984,2984,2984,2984,2984,2984,2984,2984,2984,2984,2982,2982,2982,2982,2982,2982,2982,2982,2983,2984,2984,2984,
3007,3007,3007,2982,3007,3007,3007,3008,3007,3007,3007,2982,2982,2982,2982,2982,2982,2982,2982,2982,2983,2984,3009,3009,3009,3009,3009,3009,3009,3009,3009,3009,3009,3009,2982,2982,2982,3007,3008,3007,3007,3007,2982,2982,2982,2982,2983,2984,3007,3007,3007,2982,2983,2984,2984,2984,3009,3009,3009,3009,3009,3009,3009,3009,3009,3009,3009,3009,2984,2984,2984,2984,2984,2984,2984,2984,2984,2984,2984,2984,
3008,3009,3009,3007,3007,3008,3009,3009,3009,3009,2984,3007,3007,3007,3007,3007,3007,3007,3007,3007,2982,2982,2983,2984,2982,2982,2982,2982,2982,2982,2982,2982,2982,2982,3007,3007,3007,3008,3009,3007,3008,3007,3007,3007,3007,3007,2982,2982,2982,2982,2983,2984,2982,2982,2982,2982,2983,2984,2984,2984,2984,2982,2983,3007,3007,3007,3007,3008,3009,3009,3009,3009,3009,3009,3009,3009,3009,3009,3009,3009,
3007,2982,2983,2984,2982,2982,3007,3008,3009,3009,3009,3009,3009,3009,3007,3008,3009,3009,2984,2982,3007,3007,2982,2982,2982,2982,2982,2982,2982,2982,2982,3007,3007,3007,3008,3009,3009,2982,2982,3007,3007,3008,3009,3008,3009,3007,3007,3007,3007,3007,2982,2982,2982,2982,2983,2984,2982,2982,2982,2982,2982,2982,2982,2982,2983,2984,2984,2984,2984,2984,2982,2982,2982,2982,2983,2984,2984,2984,3009,3009,
3008,2982,2982,2982,3007,3007,3008,3009,2982,2982,2982,2982,2982,2982,2982,2982,2982,2982,2982,3007,2982,2982,2982,3007,3007,3007,3007,3007,3007,3007,3007,3008,3009,2984,2982,2982,2982,2982,2982,2982,2982,2982,2982,2982,2982,2982,2982,2982,2982,2982,3007,3007,3007,3007,2982,2982,2982,2982,2982,2982,2982,2982,2982,2983,2984,2982,2982,2982,2982,2982,2982,2982,2982,2982,2982,2982,2982,2982,2982,2982,
2982,2982,3007,2982,3007,3008,3009,2982,2982,2982,2982,2982,2982,3007,3007,2982,2982,2982,2982,2982,3007,3007,3007,3008,3009,3007,3007,3007,2982,2983,2984,2984,2984,3009,2984,2984,2984,2984,2984,2984,2984,2984,2984,2984,2984,2984,2984,3007,3007,3007,3007,3007,3007,3007,3007,3007,3007,3007,3007,3007,3007,3007,3007,2982,2983,2984,3007,3007,3007,3007,3007,3007,3007,3007,3007,3007,3007,2982,2982,2982,
3007,2982,2982,3007,3008,3009,2982,3007,3007,3007,3007,3007,3007,2982,2982,3007,3007,3007,3007,3007,3008,3009,2984,2984,2984,2984,2984,2984,2984,2984,3009,3009,3009,3009,3009,3009,3009,3009,3009,3009,3009,3009,3009,3009,3009,3009,3009,2982,3007,3007,3008,2982,2982,2982,2982,2982,2982,2982,2982,2982,2982,2983,2982,2983,2984,2984,2984,2984,2984,2984,2984,2984,2984,2984,2984,2984,2984,2984,2984,2984,
2982,3007,3007,3007,3008,3009,2984,2984,2984,2984,2984,2984,2984,3007,3007,3008,3009,2984,3009,3009,3009,3009,3009,3009,3009,3009,3009,3009,3009,3009,3008,3009,3009,3009,3009,3009,3009,3009,2984,2984,2984,2984,2984,2984,2984,2984,2984,2984,2984,2984,2984,3007,3007,3007,3007,3007,3007,3007,3007,3007,3007,2982,2982,2982,2982,2982,2983,2984,3009,3009,3009,3009,3009,3009,3009,3009,3009,3009,3009,3009,
2982,2982,2982,2982,3007,3008,3009,3009,3009,2984,2984,2984,2984,3007,3008,3009,3009,3009,3009,3009,3009,3009,3009,3009,3009,3009,3009,3009,3009,3009,3009,3009,3009,3009,3007,3007,3007,3008,3009,3009,3009,3009,3009,2984,2984,2984,2984,2984,3009,3009,3009,3009,3009,3009,3009,3009,3009,3009,3009,3009,3009,3007,3007,3007,3007,3007,2982,2982,2982,2982,2982,2982,2982,2983,2984,3007,3007,3007,3007,3007,
2983,3007,3007,3007,3007,3007,3007,3007,3008,3009,3009,3009,3009,3009,3009,3009,3009,3009,2982,2982,2982,2982,2982,2982,2982,2982,2982,2982,2982,2982,2982,2982,2982,2982,3007,3007,3007,3007,3007,3007,2982,3007,3008,3009,3009,3009,3009,3009,2984,2984,2984,2982,2982,2982,2982,2983,2984,2984,2984,2984,2984,2984,2984,2984,3009,3009,3007,3007,3007,3007,3007,3007,3007,2982,2982,2982,2982,2982,2983,2984,
2982,3007,3008,3009,3009,3009,3009,3009,3009,3009,3009,3009,2984,2984,2984,2984,3007,2982,2983,2984,2984,2984,2984,2984,2984,2984,2984,2984,2984,2984,2984,2984,3007,3007,3008,3009,2982,2982,3007,3007,3007,3007,3007,3007,3007,3007,3007,3008,3009,3009,3009,2984,2984,2984,2984,2984,2984,2984,3009,3009,3009,3009,3009,3009,3007,3007,3007,3007,3007,3007,3007,3007,3007,3007,3007,3007,3007,3007,2982,2982,
3007,3007,2982,2982,2982,2982,2982,2982,2982,2982,3007,3008,2982,2983,2984,2984,2984,2984,2984,3009,3009,3009,3009,3009,3009,3009,3009,3009,3009,3009,3009,3009,2984,2982,2982,3007,3007,3007,3008,3009,3007,3007,3007,3007,2982,2982,2982,2982,2983,3007,3008,3009,3009,3009,3009,3009,3009,3009,2982,2982,2982,2982,2982,2982,2982,2982,2982,2982,2982,2982,2982,2982,2982,2982,2982,2982,2982,2983,3007,3007,
3008,2982,3007,3007,3007,3007,3007,3007,3007,3007,3007,3008,3007,3008,3009,3009,3009,3009,3009,2982,3007,3007,3007,3008,3009,3008,3009,2982,2982,2982,3007,3008,3009,3007,3007,3008,3009,2982,2982,2982,2982,2982,2982,2982,3007,3007,3007,3007,2982,2982,2982,2982,2982,2982,2982,2982,2982,2982,2982,2983,2984,3007,3007,3007,3007,3007,3007,3007,3007,3007,3007,3007,3007,3007,2982,2983,2984,2984,2982,2983,
2982,3007,3007,3008,3009,3009,3009,3009,3009,3009,2984,2984,2984,2983,2984,2984,3007,3007,3007,3007,3008,3009,3007,3007,3008,3009,2982,2982,2982,2983,2984,2984,2984,2982,2982,3007,3007,3007,3007,3007,3007,3007,3007,3007,3007,3007,3007,3007,3007,3007,3007,3007,2982,2982,2982,2982,2982,2982,2982,2982,2982,2982,2982,2982,2982,2982,2982,2982,2982,2982,2982,2982,2982,2982,2982,2982,2982,2982,2983,2984,
3007,3007,3008,3009,2982,2982,2982,3007,3008,3009,3009,3009,3009,2984,3009,3009,3008,3009,2982,2982,2982,2982,2982,2982,2982,2982,2983,2984,2984,2984,3009,3009,3009,3007,3007,3008,3009,2982,2982,2982,2982,2982,2982,2982,2983,2984,2984,2984,2984,2984,2984,2984,3007,3007,3007,3007,3007,3007,3007,3007,3007,3007,3007,3007,3007,3007,3007,3007,3007,3007,3007,3007,3007,3007,3007,3007,3007,2982,2983,2984,
3009,2984,2984,2984,3007,3007,3007,2982,2982,2982,3007,3008,3009,3009,3009,3007,3007,3007,3007,3007,2982,2982,2983,2984,2984,2984,2984,3009,3009,3009,3008,3009,2984,2984,2984,2984,2984,2984,2984,2984,2984,2984,2984,2984,2984,3009,3009,3009,3009,3009,3009,3009,3009,3009,3009,3009,3009,3009,3009,3009,3009,3007,3008,3009,3009,3009,3009,3009,3009,3009,3009,3009,3009,3009,3009,3009,2982,2983,2984,3009,
3008,3009,3009,2984,2984,2984,2982,2982,2982,3007,3007,3008,3009,2982,2983,2984,2982,2983,2982,2983,2984,2984,2984,3009,3009,3009,3009,3007,3008,3009,3009,3009,3009,3009,3009,3009,3009,3009,3009,3009,3009,3009,3009,3009,3009,3007,3007,3007,3007,3007,3007,3007,3007,3007,3007,3007,3007,3007,3007,3007,3007,3007,3007,3007,3007,3007,3008,3009,2984,2984,2984,2984,2984,2984,2984,2982,2982,2983,2984,2984,
3007,3007,3008,3009,3009,3009,2984,2984,2984,2984,3009,3007,3007,3007,2982,2982,2982,2982,2982,2983,2984,3009,3009,2982,3007,3007,3008,3009,3007,3007,3007,3007,3007,3007,3007,3007,3007,3007,3007,3007,3007,3007,3007,3007,3007,3008,3009,2984,2984,2984,2984,2984,2984,2984,2984,2984,2984,2984,2984,2984,2984,2984,2984,2984,2984,2984,2984,2984,2984,2984,2984,2984,2984,2984,2984,3007,2982,2983,2984,2984,
3009,3009,3009,3009,3007,3008,3009,3009,3009,3009,2984,2984,2984,2984,3007,3007,3007,3007,3007,2982,2982,2982,2982,2982,2983,2984,2984,2984,2984,2984,2984,3009,3009,3009,3009,3009,3009,3009,2982,2982,2982,2982,2982,2982,2982,2983,2984,3009,3009,3009,3009,3009,3009,3009,3009,3009,3009,3009,3009,3009,3009,3009,3009,3009,3009,3009,3009,3009,3009,3009,3009,3009,2982,2983,2984,2984,2984,2984,3009,3009,
2982,2983,2984,2982,2982,2982,3007,3008,3007,3008,3009,3009,3009,3009,2984,2984,2984,2984,2984,2984,2984,2984,2984,2984,2984,2984,2984,2984,3009,3009,3009,2982,2982,2982,2982,2982,2982,2982,3007,3007,3007,3007,3007,3007,3007,2982,2982,2982,2982,2982,2982,2982,2982,2982,2982,2982,2982,2982,2982,2982,2982,2982,2982,2982,2982,2982,2983,2984,2984,2984,2984,2982,2982,2982,2982,2983,2984,3009,2982,2982,
2982,2983,2984,2984,2984,2984,3007,3008,3009,3009,3009,3009,3007,3008,3009,3009,3009,2984,2984,2984,3009,3009,3009,3009,3009,3009,3009,2984,2984,2984,2984,2984,2984,2984,2984,2984,2984,2984,2984,2984,2984,2984,2984,3007,3008,3007,3007,3007,3007,3007,3007,3007,3007,3007,3007,3007,3007,3007,3007,3007,3007,3007,3007,3007,3007,3007,2982,2982,2982,2982,2982,3007,3007,2982,2982,2982,2982,2982,2982,2982,
2982,2983,2984,2982,2982,2983,2982,2982,2982,2982,3007,3007,3007,3008,3009,3007,3008,3009,3009,3009,2984,2984,2984,2984,2984,3007,3008,3009,3009,3009,3009,3009,3009,3009,3009,3009,3009,3009,3009,3009,3009,3009,2984,2984,2984,2984,2984,2984,2984,2984,3007,3007,3007,3008,3009,3009,3009,3009,3009,3009,2984,2984,2984,2984,2984,2984,3007,3007,3007,3007,3007,3007,2982,3007,3007,3007,3007,3007,3007,3007,
2982,2982,2983,2982,2982,2982,2982,2982,2982,2982,2982,2982,2982,2982,2982,2982,2982,2982,3007,3008,3009,3009,3009,3009,3009,3009,2982,2982,2982,2982,2982,2982,2982,2982,2982,2982,2982,2982,2982,2983,3007,3008,3009,3009,3009,3009,3009,3009,3009,3009,3009,3009,3009,3009,3009,3009,2984,2984,3007,3008,3009,3009,3009,3009,3009,3009,3009,3009,3009,3009,3009,3009,3007,3007,3007,3007,3007,2982,2982,2982,
2982,2982,2982,2982,2982,2982,3007,3007,3007,3007,3007,3007,3007,3007,3007,3007,3007,3007,3007,3007,3007,3007,3008,3009,2982,2982,2982,2982,2982,2982,2982,2982,2982,2982,2982,2982,2982,2982,2982,2982,2982,2982,2982,2983,2984,2984,2984,2984,2984,2984,2984,2984,2984,2984,2984,2984,2984,2984,2984,2984,2984,2984,2984,2984,2984,2984,2984,2984,2984,2984,2984,2984,2984,2984,2984,2984,2984,2984,2984,2984,
3007,3007,3007,3007,3007,3007,3007,3007,3007,3008,3009,3009,3009,3009,3009,3009,2984,2984,2984,2984,2984,2984,3007,3007,3007,3007,3007,3007,3007,3007,3007,2982,2982,3007,3007,3007,3007,3007,3007,3007,3007,3007,3007,3008,3009,3009,3009,3009,3009,3009,3009,3009,3009,3009,3009,3009,3009,3009,3009,3009,3009,3009,3009,3009,3009,3009,3009,3009,3009,3009,3009,3009,3009,3009,3009,3009,3009,3009,3009,3009,
3009,3009,3009,3009,3009,3009,3009,3009,3009,3009,3009,3009,3009,3009,3007,3008,3009,3009,3009,3009,3009,3009,2984,2984,2984,2984,2984,2982,2982,2982,2982,3007,3007,3008,3009,2984,2984,2984,2984,2984,2984,3009,3009,3009,3009,2982,2982,2982,2982,2982,2982,2982,2982,2982,2982,2982,2982,2982,2982,2982,2982,2982,3007,3007,3007,3007,3007,3007,3007,3007,3008,3009,3009,3009,3009,3009,3009,3009,3009,2982,
2982,2982,2982,2982,2982,2982,2982,2982,2982,2982,2982,2982,2982,2982,2982,2982,2982,2982,2982,2982,2982,2982,2982,2982,2982,2982,2982,3007,3007,3007,3007,3008,3009,2984,3009,3009,3009,3009,3009,3009,3009,3007,3007,3007,3007,3007,3007,3007,3007,3007,3007,3007,3007,3007,3007,3007,3007,3007,3007,3007,3007,3007,3007,3007,3007,3007,3007,3007,3007,3007,3007,3007,3007,3007,3007,3007,3007,3007,3007,3007,
3007,3007,3007,3007,3007,3007,3007,3007,3007,3007,3007,3007,3007,3007,3007,3007,3007,3007,3007,3007,3007,3007,3007,3007,3007,3007,3007,3007,3008,3009,3009,3009,3009,3009,3007,3007,3007,3007,3007,2982,2982,2982,2982,2982,2982,2982,2982,2982,2982,2982,2982,2982,2982,2982,2982,3007,3008,3009,3009,3009,3009,3009,3009,3009,3009,3009,3009,2984,2984,2984,2984,2984,2984,2984,2984,2984,2984,2984,2984,2984,
3008,3009,3009,3009,3009,3009,3009,3009,3009,3009,2984,2984,2984,2984,2984,2984,2984,2982,2982,2982,2982,2982,3007,3008,3009,3009,2982,2982,2982,2982,2982,2982,2982,2982,2982,2982,2982,2982,2982,2982,2982,2982,2982,2982,2982,2982,2982,2982,2982,2982,2982,2982,2982,2982,2982,2982,2982,2983,2984,3007,3007,3007,3007,3007,3007,3007,3008,3009,3009,3009,3009,2982,2983,2984,2984,3009,3009,3009,3009,3009,
3007,3007,3007,3007,3007,3007,3007,3007,3007,3008,3009,3009,3009,3009,3009,3009,3009,3007,3007,3007,3007,3007,3007,3007,3007,3007,3007,3007,3007,3007,3007,3007,3007,3007,3007,3007,3007,3007,3007,3007,3007,3007,3007,2982,2983,2984,2984,2984,2984,2984,2984,2984,2984,2984,2984,2984,2984,2984,3009,2982,2982,2982,2982,2982,2982,2982,2982,2982,2982,2982,2982,2982,2982,2982,2982,2983,2984,3007,3007,3007,
3007,3007,3007,3007,3007,3007,3007,3007,3007,3007,3007,3008,3009,2982,2982,2982,2982,2982,2982,2982,2982,2982,2982,2982,2982,2982,2982,2982,2982,2982,2982,2982,2982,2982,2982,2982,2982,2982,2982,2982,2982,2982,2982,2982,2983,2984,2982,2982,2982,2982,2982,2983,2984,3009,3009,3009,3009,3009,2984,2984,2984,2984,2984,2984,2984,2984,2984,2984,2984,2984,2984,2984,2984,2984,2984,2984,2984,2984,2984,2984,
3008,3007,3007,3007,3007,3007,3007,3007,3007,3007,3007,3007,3007,3007,3007,3007,3007,3007,3007,3007,3007,3007,3007,3007,3007,3007,3007,3007,3007,3007,3007,3007,3007,3007,3007,3007,3007,2982,2983,2984,2984,2984,2984,2984,2984,2984,2984,2984,2984,2984,2984,2984,2984,2984,2984,2984,2984,3009,3009,3009,3009,3009,3009,3009,3009,3009,3009,3009,3009,3009,3009,3009,3009,3009,3009,3009,3009,3009,3009,3009,
2984,2984,2984,2984,2984,2984,2984,2984,2984,2984,2984,2984,2984,2984,2984,2984,2984,2984,2984,2984,2984,2984,2984,2984,2984,2984,2984,2984,2984,2984,2984,2984,2984,2984,2984,2984,2984,2984,2984,3009,3009,3009,3009,3009,3009,3009,3009,3009,3009,3009,3009,3009,3009,3009,3009,3009,3009,3009,3009,3009,3009,3009,3009,2984,2984,2984,2984,2984,2984,2984,3007,3007,3007,3007,3007,3007,3007,3007,3007,3007
</data>
 </layer>
 <layer id="4" name="caminos" width="80" height="50">
  <data encoding="csv">
3286,3287,3286,3286,3286,3286,3286,3286,3286,3286,3286,3286,3286,3286,3286,3286,3286,3287,3311,3311,3312,3287,0,0,0,0,0,0,0,0,0,0,0,0,11225,0,0,0,0,11211,11212,0,0,0,0,0,3286,0,0,0,0,0,0,0,0,0,0,0,0,0,0,0,0,0,0,0,11211,11212,0,0,0,0,0,0,0,0,0,0,0,0,
3286,3287,3311,3286,3286,3286,3286,3286,3311,3286,3287,3287,3311,3311,3311,3286,3286,3287,3311,3312,3312,3312,0,0,0,0,0,0,0,0,0,0,0,0,0,0,0,0,11263,0,0,0,0,0,0,0,3286,0,0,0,0,0,0,0,0,0,0,0,0,0,0,0,0,0,0,0,0,0,0,0,0,0,0,0,0,0,0,0,0,0,
3286,3287,3286,3311,3286,3311,3311,3311,3286,3287,3287,3312,3287,3287,3287,3286,3287,3286,3311,3312,3311,3312,0,0,0,0,0,0,0,0,0,0,0,0,0,0,0,0,0,0,0,0,0,0,0,0,3286,0,0,11265,0,11237,0,0,0,0,0,0,0,0,0,0,0,0,0,0,0,0,11201,0,0,0,0,0,0,0,0,0,0,0,
3286,3287,3287,3311,3286,3286,3287,3286,3287,3312,3312,3312,3312,3312,3312,3287,3312,3311,3311,3312,0,0,0,0,0,0,0,0,0,0,0,11196,11197,0,0,0,0,0,0,11225,0,0,0,0,0,0,3286,0,0,0,0,0,0,11224,0,0,0,0,0,0,0,0,0,0,0,0,0,0,0,0,0,0,0,0,0,0,0,0,0,0,
3286,3287,3312,3286,3286,3287,3312,3287,3312,3286,3286,3286,3286,3286,3286,3286,3286,3311,3312,0,0,0,11214,0,0,0,0,0,0,0,0,11209,11210,0,0,0,0,0,0,0,0,11263,0,0,0,0,3286,3286,0,0,0,0,0,0,0,0,0,0,0,0,0,11198,11199,0,0,0,0,0,0,0,0,0,0,0,0,0,0,0,0,0,
3286,3287,3312,3286,3287,3312,3287,3312,3286,3286,3286,3311,3311,3311,3311,3311,3311,3312,3312,0,0,0,0,0,0,0,0,0,0,0,0,11222,11223,0,0,0,0,0,0,11214,0,0,0,0,0,0,0,3286,3286,0,0,0,0,0,0,0,0,0,0,0,0,11211,11212,0,662,663,664,664,664,664,664,664,665,0,0,0,0,0,0,0,
3286,3286,3287,3287,3286,3287,3312,3286,3311,3286,3311,3312,0,3311,3312,3286,3286,3287,0,0,0,0,0,0,0,0,0,0,0,0,0,0,0,0,0,0,0,0,0,0,0,0,0,0,0,0,0,0,3286,0,0,0,0,0,0,0,0,0,0,0,0,0,0,0,871,0,0,0,0,0,0,0,876,0,0,0,0,0,0,0,
3311,3286,3287,3286,3286,3287,3312,3311,3312,3311,3312,3287,0,3311,3312,3287,3286,3287,0,0,0,0,0,0,0,0,0,0,0,0,0,0,0,0,0,0,0,0,0,0,0,0,0,0,0,0,0,0,3286,0,0,0,0,11196,11197,0,0,11261,0,0,0,0,0,0,871,0,0,0,0,0,0,0,876,0,0,0,0,0,0,0,
3311,3286,3286,3311,3286,3287,3287,3287,3311,3311,3312,3312,0,3311,3312,3312,3287,3287,0,0,0,0,0,11196,11197,0,0,0,0,0,0,0,0,0,0,0,0,0,0,0,0,0,0,0,0,0,0,3286,3286,0,0,0,0,11209,11210,0,0,0,0,0,0,0,0,0,913,663,663,663,914,0,0,0,876,0,0,0,0,0,0,0,
3311,3311,3311,3312,3286,3286,3287,3286,3286,3311,3312,3287,0,0,3311,3312,3312,3312,0,0,0,0,0,11209,11210,0,0,0,0,0,0,0,0,11235,0,0,0,0,0,0,0,0,0,0,11261,0,3286,3286,0,0,0,0,0,11222,11223,0,0,0,0,0,0,0,0,0,955,1000,1000,1000,956,957,957,958,959,0,0,0,0,0,0,0,
3311,3312,3286,3311,3311,3286,3286,3311,3311,3311,3312,3286,3287,0,0,0,0,0,0,0,0,0,0,11222,11223,0,0,0,0,0,0,0,0,0,11201,0,0,0,11225,0,0,0,0,0,3286,3286,3286,0,0,0,0,0,0,0,0,0,0,0,0,0,0,0,0,0,997,1042,1042,1042,998,999,999,1000,1001,0,0,0,0,0,0,0,
3286,3311,3311,3311,3312,3311,3311,3312,3311,3312,3286,3287,3287,0,0,0,0,0,0,0,0,0,0,0,0,0,0,0,0,0,0,0,0,0,0,0,0,0,0,0,11248,0,0,0,3286,0,0,0,0,0,0,0,11201,0,0,0,0,0,0,0,0,0,0,2479,997,1042,1042,1042,1040,1041,1041,1042,1043,2483,0,0,0,0,0,0,
3311,3311,3286,3287,3311,3312,3311,3311,3311,3312,3287,3312,3312,0,0,0,0,0,0,0,0,0,0,0,0,0,0,0,0,0,0,0,0,0,0,0,0,0,0,0,0,0,0,0,3286,0,0,0,0,0,0,0,0,0,0,0,0,0,11263,0,0,0,0,2521,1039,1084,1084,1084,1040,1041,1042,1042,1043,2525,0,0,0,0,0,0,
3311,3312,3286,3286,3311,3311,3311,3312,3287,3312,3312,0,0,0,0,0,0,0,0,0,0,0,0,0,0,0,0,0,0,0,0,0,0,0,0,0,0,0,0,0,0,0,0,0,3286,0,0,0,0,0,0,0,0,0,0,0,0,0,0,0,0,0,0,2606,2607,3287,3287,2564,1040,1041,1042,1042,1043,2525,0,0,0,0,0,0,
3311,3312,3311,3311,3312,3287,3287,3312,3312,0,0,0,0,0,0,0,0,0,0,0,0,0,0,0,0,0,0,0,0,0,0,0,0,0,0,0,0,0,0,0,0,0,0,3286,3286,0,0,0,0,0,0,0,0,0,0,0,0,0,0,0,0,0,0,0,0,3287,3287,2521,1082,1083,1084,1084,1085,2525,0,0,0,0,0,0,
3311,3312,3287,3287,3287,3312,3312,0,0,0,0,0,0,0,0,0,0,0,0,0,0,0,0,0,0,0,0,0,0,0,0,0,0,0,0,0,0,0,0,0,0,0,3286,3286,0,0,0,0,0,0,0,0,0,0,0,0,0,0,0,0,0,0,0,0,3287,3287,3287,2606,2607,2607,2607,2607,2607,2608,0,0,0,0,0,0,
3312,3287,3312,3287,3312,0,0,0,0,0,0,0,0,0,0,0,0,0,0,0,0,0,0,0,0,0,0,0,0,0,0,0,0,0,0,0,0,0,0,0,0,0,3286,0,0,0,0,0,0,0,2747,2748,0,0,0,0,0,0,0,0,0,0,0,3287,3287,3287,0,0,0,0,0,0,0,0,0,0,0,0,0,0,
3312,3287,3312,3312,0,0,0,0,0,0,0,0,0,0,0,0,0,0,0,0,0,0,0,0,0,0,0,0,0,0,0,0,0,0,0,2747,2748,0,0,2747,2747,2747,2748,0,0,0,0,0,0,0,0,2797,2797,2798,2797,2797,2797,2797,2797,2797,2797,2797,2797,2797,2797,2797,2797,2797,2797,2797,2797,2797,2797,2797,2797,2797,2797,2797,2797,2797,
3312,3287,3312,0,0,0,0,0,0,0,0,0,0,0,0,0,0,0,0,0,0,0,0,0,0,0,0,0,0,0,0,0,0,0,0,2747,2748,2747,2748,2748,2748,0,0,0,0,0,2747,2747,2747,2748,0,2822,2797,2797,2822,2822,2822,2822,2822,2822,2822,2822,2822,2822,2822,2822,2822,2822,2822,2822,2822,2822,2822,2822,2822,2822,2822,2822,2822,2822,
3312,3312,3312,0,0,0,0,0,0,0,0,0,0,0,0,7207,7208,7209,7210,0,0,0,0,0,0,0,0,0,0,0,0,2747,2748,2747,2748,2747,2747,2748,2747,2748,2747,2748,2748,2748,2748,2748,2748,2748,2748,2747,2748,2747,2822,2822,2823,2748,0,0,0,0,0,0,0,0,0,0,0,0,0,0,0,0,0,0,0,0,0,0,0,0,
3312,3311,3312,0,0,0,0,0,0,0,0,0,0,0,0,0,0,0,0,0,0,0,0,0,0,0,0,0,0,0,2747,2747,2748,2747,2748,2747,2748,2772,2747,2748,2747,2748,2798,2798,2798,2798,2773,2747,2748,2747,2748,2747,2748,2773,2747,2748,0,0,0,0,0,0,0,0,0,0,0,0,0,0,0,0,0,0,0,0,0,0,0,0,
3311,3311,3312,3286,3287,0,0,0,0,0,0,0,0,0,0,0,0,0,0,0,0,0,0,0,0,0,0,0,0,0,0,0,2747,2748,2771,2747,2748,2748,2748,2798,2823,2823,2823,2823,2823,2823,2798,2773,2747,2748,2773,2773,2798,2798,2798,0,0,0,0,0,0,0,0,0,0,0,0,0,0,0,0,0,0,0,0,0,0,0,0,0,
0,3311,3312,3287,3287,3287,0,0,0,0,0,0,0,0,0,0,0,0,0,0,0,0,0,0,0,0,0,0,0,0,2747,2748,2747,2748,7229,7230,2773,2773,2798,2823,2771,2796,2771,2821,2822,2823,2823,2798,2747,2748,2798,2798,2823,2823,2823,0,0,0,0,0,0,0,0,0,0,0,0,0,0,0,0,0,0,0,0,0,0,0,0,0,
0,0,3311,3312,3312,3312,0,0,0,0,0,0,0,0,0,3287,3287,0,0,0,0,0,0,0,0,0,0,0,0,0,2747,2747,2747,2748,2772,2773,2773,2798,2823,2773,2771,2771,2796,2796,2821,2822,1023,1023,1023,1024,2823,2823,2821,2822,2823,2747,2748,0,0,0,0,0,0,0,0,0,0,0,0,0,0,0,0,0,0,0,0,0,0,0,
0,0,0,0,0,0,0,0,0,0,0,0,0,0,0,3313,3313,3313,0,0,0,0,0,0,0,0,0,0,0,0,2747,2748,2748,2748,2748,2748,2748,2748,2772,2773,2796,2796,2821,2821,2821,2771,2772,2773,2796,2821,2822,2823,2772,2773,0,0,0,0,0,0,0,0,0,0,0,0,0,0,0,0,0,0,0,0,0,0,0,0,0,0,
2797,2798,2798,2798,2798,2798,2798,2798,2798,2798,2798,2798,2798,2798,2798,2798,2798,2798,2798,2798,2798,2798,2798,2798,2798,2798,2798,2798,2798,2798,2798,2798,2748,2772,2773,2798,2823,2771,2772,2773,2821,2821,2822,2823,2771,2772,2773,2798,2821,2822,2823,2798,2773,2772,2773,0,0,0,0,0,0,0,0,0,0,0,0,0,0,0,0,0,0,0,0,0,0,0,0,0,
2822,2823,2823,2823,2823,2823,2823,2823,2823,2823,2823,2823,2823,2823,2823,2823,2823,2823,2823,2823,2823,2823,2823,2823,2823,2823,2823,2823,2823,2823,2823,2823,2772,2773,2798,2823,2772,2773,2772,2773,2822,2823,2823,2771,2772,2773,2798,2823,2821,2822,2823,2823,2798,2772,2773,0,0,0,0,0,0,0,0,0,0,0,0,0,0,0,0,0,0,0,0,0,0,0,0,0,
3338,0,0,0,0,3338,3338,0,0,0,0,0,0,0,0,0,0,0,0,0,0,0,0,3338,3338,0,0,0,0,0,2771,2772,2773,2773,2823,2771,2772,2773,2773,2798,2823,2773,2771,2772,2773,2773,2823,2822,2823,2821,2822,2823,2823,2772,2773,0,0,0,0,0,0,0,0,0,0,0,0,0,0,0,0,0,0,0,0,0,0,0,0,0,
0,0,0,0,0,0,0,0,0,0,0,0,0,0,0,0,0,0,0,0,0,0,0,0,0,0,0,0,0,2771,2772,2773,2773,2798,2821,2796,2771,2771,2771,2771,2771,2771,2771,2772,2773,2798,2822,2771,2771,2796,2821,2822,2823,2773,2773,0,0,2982,2983,0,0,0,0,0,0,0,0,0,0,0,0,0,0,0,0,0,0,0,0,0,
0,0,0,0,0,0,0,0,0,0,0,0,0,0,0,0,0,0,0,0,0,0,0,0,0,0,0,0,0,2771,2772,2773,2771,2772,2773,2773,2773,2796,2796,2796,2796,2796,2771,2771,2771,2771,2771,2771,2796,2821,2821,2822,2823,2773,2798,0,2982,3007,3008,0,0,0,0,0,0,0,0,0,0,0,0,0,0,0,0,0,0,0,0,0,
0,0,0,0,0,0,0,0,0,0,0,0,0,0,0,0,0,0,0,0,0,0,0,0,0,0,0,0,0,2771,2771,2772,2796,2771,2771,2772,2773,2773,2821,2821,2821,2821,2796,2796,2796,2796,2796,2796,2821,2821,2822,2823,2773,2798,2799,2982,3007,3007,3008,0,0,0,0,0,0,0,0,0,0,0,0,0,0,0,0,0,0,0,0,0,
0,0,0,0,0,0,0,0,0,0,0,0,0,0,0,0,0,0,0,0,0,0,0,0,0,0,0,2773,0,2773,2773,2773,2773,2796,2796,2771,2771,2771,2771,2771,2772,2773,2821,2821,2821,2821,2821,2821,2822,2823,2822,2823,2798,2799,2799,3007,3007,3008,0,0,0,0,0,0,0,0,0,0,0,0,0,0,0,0,0,0,0,0,0,0,
0,0,0,0,0,0,0,0,0,0,0,0,0,0,0,0,0,0,0,0,0,0,0,0,0,0,0,0,2773,2773,2821,2796,2773,2821,2821,2796,2796,2796,2796,2796,2771,2772,2773,2823,2773,2773,2773,2773,2773,2798,2823,2823,2823,0,2982,3007,3008,2983,2982,2982,2983,2983,0,0,0,0,0,0,0,0,0,0,0,0,0,0,0,0,0,0,
0,0,0,0,0,0,0,0,0,0,0,0,0,0,0,0,0,0,0,0,0,0,0,0,0,0,0,2773,2773,2773,2773,2773,2773,2771,2771,2821,2821,2821,2821,2821,2796,2771,2771,2771,2771,2771,2772,2773,2798,2823,0,0,0,0,3007,3007,3008,3008,2982,2983,2983,3008,0,0,0,0,0,0,0,0,0,0,0,0,0,0,0,0,0,0,
0,0,0,0,0,0,0,0,0,0,0,0,0,0,0,0,0,0,0,0,0,0,0,0,0,0,2773,2773,2773,2774,2775,2775,2775,2796,2771,2771,2821,2822,2823,2823,2821,2796,2796,2796,2796,2771,2772,2773,2823,0,0,0,0,0,3007,3008,3007,3008,2982,2983,3008,2983,0,0,0,0,0,0,0,2799,3188,0,0,0,0,0,0,0,0,0,
0,0,0,0,0,0,0,0,0,0,0,0,0,0,0,0,0,0,0,0,0,0,0,0,0,2773,2773,2773,2774,2775,2775,2773,2773,2773,2796,2796,2796,2821,2822,2823,2823,2821,2821,2821,2821,2771,2771,2771,2771,2772,2773,2773,0,0,3007,3008,3008,2983,2983,3008,2982,2983,0,0,0,0,0,0,2847,2847,3188,2799,0,3188,2799,3188,0,3188,3188,0,
0,0,0,0,0,0,0,0,0,0,0,0,0,0,0,0,0,0,0,0,0,0,0,0,0,2773,2774,2775,2774,2775,2772,2773,2773,2773,2773,2773,2773,2773,2773,2772,2773,2773,2773,2773,2773,2773,2773,2773,2773,2773,2798,2798,0,2982,3007,3007,3008,3008,2983,2982,2983,2983,0,0,0,2799,2799,2847,2847,2847,2847,2847,2847,2847,2847,2847,2847,2847,3337,0,
0,0,0,0,0,0,0,0,0,3287,3287,0,0,0,0,0,0,0,0,0,0,0,0,0,0,2773,2774,2775,2775,2775,2773,2773,2773,2823,2798,2798,2798,2798,2798,2773,2798,2798,2798,2798,2798,2798,2798,2798,2798,2798,2823,2823,0,3007,3008,3007,3007,3007,3008,2983,2983,3008,2799,2799,2847,2847,2847,2847,3397,3397,3397,3397,3397,3397,3397,3397,2847,2847,3337,3337,
0,0,0,0,0,0,0,0,0,3287,3287,0,0,0,0,0,0,0,0,0,0,0,0,0,0,2773,2774,2775,2796,2773,2774,2775,2823,2822,2823,2823,2823,2823,2823,2798,2823,2823,2823,2823,2823,2823,2823,2823,2823,2823,0,0,0,3007,3008,3007,3008,2983,2983,2983,3008,2799,2799,2847,2847,3497,3498,3497,3497,3497,3497,3498,3688,3688,3658,3397,3688,3497,3498,3337,
0,0,0,0,0,0,0,0,0,3287,3287,0,0,0,0,0,0,0,0,0,0,0,0,0,0,2773,2774,2775,2796,2773,2749,2775,2775,0,0,0,2821,2822,2823,2823,0,0,0,0,0,0,0,0,0,0,0,0,0,0,3007,3008,3008,3008,3008,3008,0,2799,2799,2847,3497,3498,3498,3498,3497,3497,3498,3497,3497,3665,3497,3497,3688,3497,3497,3498,
0,0,0,0,0,0,0,0,0,3287,3287,0,0,0,0,0,0,0,0,0,0,0,0,0,0,2773,2774,2774,2775,2749,2749,2749,2749,0,0,0,0,0,0,0,0,0,0,0,0,0,0,0,0,0,0,0,0,0,0,0,0,0,0,0,0,2847,3337,3497,3497,3498,3498,3497,3658,3417,3382,3383,3383,3396,3497,3498,3665,3665,3688,3498,
0,0,0,0,0,0,0,0,0,3287,3287,0,0,0,0,0,0,0,0,0,0,0,0,0,2773,2773,2796,2774,2775,2749,2749,2749,0,0,0,0,0,0,0,0,0,0,0,0,0,0,0,0,0,0,0,0,0,0,0,0,0,0,0,0,2847,2847,3497,3498,3688,3665,3497,3658,3658,3406,3407,3408,3408,3421,3395,3401,3428,3665,3688,3498,
0,0,0,0,0,0,0,0,0,0,3287,3287,3287,0,0,0,0,0,0,0,0,0,0,2771,2771,2771,2771,2774,2775,2773,0,0,0,0,0,0,0,0,0,0,0,0,0,0,0,0,0,0,0,0,0,0,0,0,0,0,0,0,0,0,2847,3497,3498,3498,3688,3498,3658,3498,3418,3419,0,0,0,0,0,0,3453,3665,3498,3498,
0,0,0,0,0,0,0,0,0,0,3287,3287,3287,3287,3287,3287,0,0,0,0,0,0,2771,2771,2771,2771,2796,2774,3286,3286,3286,0,0,0,0,0,0,0,0,0,0,0,0,0,0,0,0,0,0,0,0,0,0,0,0,0,0,0,0,0,2847,3497,3497,3665,3688,3658,3497,3498,3443,3444,0,0,0,0,0,0,3427,3428,3497,3498,
0,0,0,0,0,0,0,0,0,0,0,0,3287,3287,3287,3287,3287,3286,0,0,0,0,3286,3286,3286,2796,2773,2773,3286,3286,3286,3286,0,0,0,0,0,0,0,0,0,0,0,0,0,0,0,0,0,0,0,0,0,0,0,0,0,0,0,0,3337,3287,3497,3497,3688,3658,3688,3688,3468,3469,0,0,0,0,0,0,0,3453,3398,3398,
0,0,0,0,0,0,0,0,0,0,0,0,0,0,3286,3287,3287,3287,3287,3287,3287,3286,3286,3312,3286,2773,2797,2798,3286,3287,3286,3286,0,0,0,0,0,0,0,0,0,0,0,0,0,0,0,0,0,0,0,0,0,0,0,0,0,0,0,0,3337,3287,3497,3497,3688,3658,3498,3497,3498,3443,0,0,0,0,0,0,0,3453,3423,3688,
0,0,0,0,0,0,0,0,0,0,0,0,0,3286,3286,3286,3286,3287,3286,3286,3287,3312,3312,3313,3313,3286,3287,3288,3289,3290,3286,3286,0,0,0,0,0,0,0,0,0,0,0,0,0,0,0,0,0,0,0,0,0,0,0,0,0,0,0,0,3337,3287,3497,3497,3688,3658,3498,3498,3498,3443,0,0,0,0,0,3471,3495,3496,3658,3688,
0,0,0,0,0,0,0,0,0,0,0,0,0,3286,3286,3287,3287,3287,3286,3286,3286,3312,3313,3313,3286,3311,3312,3313,3314,3315,3287,3287,3286,0,0,0,0,0,0,0,0,0,0,0,0,0,0,0,0,0,0,0,0,0,0,0,0,0,0,3337,3287,3665,3497,3497,3397,3658,3658,3688,3498,3443,0,0,0,0,0,3447,3417,3497,3658,3473,
0,0,0,0,0,0,0,0,0,0,0,0,0,3286,3286,3287,3287,3287,3286,3286,3286,3286,3311,3311,3311,3311,3312,3313,3314,3315,3290,3287,3286,0,0,0,0,0,0,0,0,0,0,0,0,0,0,0,0,0,0,0,0,0,0,0,0,0,3337,3287,3287,3497,3665,3497,3498,3497,3658,3498,3688,3474,3475,0,0,0,3471,3472,3688,3688,3688,3497,
0,0,0,0,0,0,0,0,0,0,0,3286,3286,3286,3287,3287,3287,3311,3311,3311,3311,3311,3311,3312,3313,3286,3311,3312,3313,3314,3315,3287,3286,0,0,0,0,0,0,0,0,0,0,0,0,0,0,0,0,0,0,0,0,0,0,0,0,0,3337,3287,3497,3498,3498,3498,3498,3498,3498,3498,3498,3499,3500,3501,3501,3501,3496,3392,3497,3393,3497,3497
</data>
 </layer>
 <layer id="6" name="arboles" width="80" height="50">
  <data encoding="csv">
0,11257,11190,11191,0,0,11257,0,0,11205,11206,0,11234,0,0,0,11216,11217,11272,0,0,0,0,0,0,0,0,0,4134,4135,4136,4023,4024,4025,0,4147,4148,4149,0,0,4742,4743,4744,4745,4746,4747,4748,4160,4161,4162,0,4173,4174,4175,0,0,0,4461,4462,4463,4464,4465,0,0,0,0,0,0,0,0,0,0,0,0,0,0,0,0,0,0,
0,0,11203,11204,0,0,0,0,0,11232,11272,0,11190,11191,0,0,0,0,0,0,0,0,0,0,0,0,0,0,4147,4148,4149,4039,4040,4041,0,4160,4161,4162,0,0,4770,4771,4772,4773,4774,4775,4776,4173,4174,4175,0,4186,4187,4188,0,0,4448,4449,4450,0,0,0,0,0,0,0,0,0,0,0,0,0,0,0,0,0,0,0,0,0,
0,0,11216,11217,0,11232,0,0,0,0,0,0,11203,11204,0,11234,0,11192,11193,0,0,0,0,0,0,4007,4008,4009,4160,4161,4162,4055,4056,4057,0,4173,4174,4175,0,0,4798,4799,4800,4801,4802,4803,4804,4186,4187,4188,0,4199,4200,4201,0,0,4471,4472,4473,0,0,0,0,0,0,0,0,0,0,0,0,0,0,0,0,0,0,0,0,0,
0,0,0,0,0,0,0,0,0,0,0,0,11216,11217,0,0,0,11205,11206,0,0,0,0,0,0,4023,4024,4025,4173,4174,4175,0,0,0,0,4186,4187,4188,0,0,4826,4827,4828,4829,4830,4831,4832,4199,4200,4201,0,0,0,0,0,0,0,0,4007,4008,4009,0,0,0,0,0,0,0,0,0,0,0,0,0,0,0,0,0,0,0,
11192,11193,0,11257,0,11190,11191,0,0,0,0,11218,0,0,11190,11191,0,0,0,0,0,5240,5241,5242,5243,4039,4040,4041,4186,4187,4188,0,0,0,0,4199,4200,4201,0,0,4854,4855,4856,4857,4858,4859,4860,0,0,0,0,0,4448,4449,4450,0,0,0,4023,4024,4025,0,0,0,2983,2983,0,0,4023,0,0,0,0,0,0,0,0,0,0,0,
11205,11206,0,0,0,11203,11204,0,0,0,0,0,0,11272,11203,11204,0,0,0,0,0,5268,5269,5270,5271,4055,4056,4057,4199,4200,4201,5239,5240,5241,5242,5243,5244,0,0,0,4882,4883,4884,4885,4886,4887,4888,0,0,4007,4008,4009,4471,4472,4473,0,0,0,4039,4040,4041,0,0,0,2983,2983,0,2983,4039,0,0,0,0,0,0,0,0,0,0,0,
0,0,0,0,0,11216,11217,0,0,0,0,0,0,0,11216,11217,0,0,0,0,0,5296,5297,5298,5299,0,0,0,0,4007,4008,4009,5268,5269,5270,5271,5272,0,0,0,4910,4911,4912,4913,4914,4915,4916,0,0,4023,4024,4025,0,0,0,0,0,0,4055,4056,4057,0,0,690,2983,2983,2983,2983,4055,4023,0,0,0,0,0,0,0,0,0,0,
0,11243,0,0,0,0,0,11243,0,0,0,11272,0,0,0,0,0,0,0,0,0,0,0,0,0,0,0,0,0,4023,4024,4025,5296,5297,5298,5299,5300,0,0,0,0,0,0,0,0,0,0,0,0,4039,4040,4041,0,0,0,0,0,0,0,0,0,0,0,0,0,0,0,0,0,4039,0,0,0,0,0,0,0,0,0,0,
0,0,11190,11191,0,0,0,0,0,0,0,0,0,0,0,0,0,0,0,0,0,0,0,0,0,0,0,0,0,4039,4040,4041,0,0,0,0,0,0,0,0,0,0,0,0,0,0,0,0,0,4055,4056,4057,0,0,0,0,0,0,0,0,0,0,0,0,0,0,0,0,0,4055,0,0,0,0,0,0,0,0,0,0,
0,11257,11203,11204,0,0,0,0,11192,11193,0,0,0,0,0,0,0,0,0,0,0,0,0,0,0,0,0,0,0,4055,4056,4057,0,0,0,0,0,0,0,0,0,0,0,0,0,0,0,0,0,0,0,0,0,0,0,0,0,0,0,0,0,0,0,0,0,0,0,0,0,0,0,0,0,0,0,0,0,0,0,0,
0,0,11216,11217,0,0,0,0,11205,11206,0,0,0,0,0,0,0,0,0,0,0,0,0,0,0,0,0,0,0,0,0,0,0,0,0,0,0,0,0,0,0,0,0,0,0,0,0,0,0,0,0,0,0,0,0,0,0,0,0,0,0,0,0,0,0,0,0,0,0,0,0,0,0,0,0,0,0,0,0,0,
0,0,0,0,0,0,0,0,0,0,0,0,0,0,0,0,0,0,0,0,0,0,0,0,0,0,0,0,0,0,0,0,0,0,0,0,0,0,0,0,0,0,0,0,0,0,0,0,0,0,0,0,0,0,0,0,0,0,0,0,0,0,0,0,0,0,0,0,0,0,0,0,0,0,0,0,0,0,0,0,
0,0,0,0,0,0,0,0,0,0,0,0,2959,0,0,0,0,0,0,0,0,0,0,0,0,0,0,0,0,0,0,0,0,0,0,0,0,0,0,0,0,0,0,0,0,0,0,0,0,0,0,0,0,0,0,0,0,0,0,0,0,0,0,0,0,0,0,0,0,0,0,0,0,0,0,0,0,0,0,0,
11190,11191,0,0,0,0,0,0,0,0,2959,0,0,0,0,0,0,0,0,0,0,0,0,0,0,0,0,0,0,0,0,0,0,0,0,0,0,0,0,0,0,0,0,0,0,0,0,0,0,0,0,0,0,0,0,0,0,0,0,0,0,0,0,0,0,0,0,0,0,0,0,0,0,0,0,0,0,0,0,0,
11203,11204,0,0,0,0,0,0,2959,0,0,0,0,0,0,0,0,0,0,0,0,0,0,0,0,0,0,0,0,0,0,0,0,0,0,0,0,0,0,0,0,0,0,0,0,0,0,0,0,0,0,0,0,0,0,0,0,0,0,0,0,0,0,0,0,0,0,0,0,0,0,0,0,0,0,0,0,0,0,0,
11216,11217,0,0,0,0,2935,0,0,0,0,0,0,0,0,0,0,0,0,0,0,0,0,0,0,0,0,0,0,0,0,0,0,0,0,0,0,0,0,0,0,0,0,0,0,0,0,0,0,0,0,0,0,0,0,0,0,0,0,0,0,0,0,0,0,0,0,0,0,0,0,0,0,0,0,0,0,0,0,0,
0,0,0,0,2935,0,0,0,0,0,0,0,0,0,0,0,0,0,0,0,0,0,0,0,0,0,0,0,0,0,0,0,0,0,0,0,0,0,0,0,0,0,0,0,0,0,0,0,0,0,0,0,0,0,0,0,0,0,0,0,0,0,0,0,0,0,0,0,0,0,0,0,0,0,0,0,0,0,0,0,
0,0,0,2935,0,0,0,0,0,0,0,0,0,0,0,0,0,0,0,0,0,0,0,0,0,0,0,0,0,0,0,0,0,6327,6328,6329,6327,6328,6329,6327,6328,6329,0,0,0,0,0,0,0,0,0,0,0,0,0,0,0,0,0,0,0,0,0,0,0,0,0,0,0,0,0,0,0,0,0,0,0,0,0,0,
0,0,2910,0,0,0,0,0,0,0,0,0,0,0,0,7229,7230,0,0,0,0,0,0,0,0,0,0,0,0,0,0,0,0,0,0,0,0,0,1023,1024,0,0,0,0,0,0,0,0,0,0,0,0,0,0,0,0,0,0,0,0,0,0,0,0,0,0,0,0,0,0,0,0,0,0,0,0,0,0,0,0,
0,0,2910,0,0,0,0,0,0,0,0,0,0,0,0,7229,7230,0,0,0,0,0,0,0,0,0,0,0,0,0,0,0,0,0,0,0,0,0,1023,1024,0,0,0,0,0,0,0,0,0,0,0,0,0,0,0,0,0,0,0,0,0,0,0,0,0,0,0,0,0,0,0,0,0,0,0,0,0,0,0,0,
0,0,2910,0,0,0,0,0,0,0,0,0,0,0,7229,7230,7230,0,0,0,0,0,0,0,0,0,0,0,0,0,0,0,0,0,0,0,0,0,0,0,0,0,0,0,0,0,0,0,0,0,0,0,0,0,0,0,0,0,0,0,0,0,0,0,0,0,0,0,0,0,0,0,0,0,0,0,0,0,0,0,
2931,0,0,2906,2884,0,0,0,0,0,0,0,0,0,0,0,0,0,0,0,0,0,0,0,0,0,0,0,0,0,0,0,0,0,0,0,0,0,0,0,0,0,0,0,0,0,0,0,0,0,0,0,0,0,0,0,0,0,0,0,0,0,0,0,0,0,0,0,0,0,0,0,0,0,0,0,0,0,0,0,
0,2957,0,0,0,2885,0,0,0,0,0,0,0,0,0,0,0,0,0,0,0,0,0,0,0,0,0,0,0,0,0,0,0,6255,1023,1024,1024,0,0,0,0,0,0,0,0,0,6255,1023,1024,1024,0,0,0,0,0,0,0,0,0,0,0,0,0,0,0,0,0,0,0,0,0,0,0,0,0,0,0,0,0,0,
0,0,2958,2958,2958,2959,0,0,0,0,0,0,0,0,0,0,0,0,0,0,0,0,0,0,0,0,0,0,0,0,0,0,0,1023,1023,1023,1024,0,0,0,0,0,0,0,0,0,1023,1023,1023,1024,0,0,0,0,0,0,0,0,0,0,0,0,0,0,0,0,0,0,0,0,0,0,0,0,0,0,0,0,0,0,
0,0,2958,2958,0,0,0,0,0,0,0,0,0,0,0,0,0,0,0,0,0,0,0,0,0,0,0,0,0,0,0,0,0,0,0,0,0,0,0,0,0,0,0,0,0,0,0,0,0,0,0,0,0,0,0,0,0,0,0,0,0,0,0,0,0,0,0,0,0,0,0,0,0,0,0,0,0,0,0,0,
0,0,0,0,0,0,0,0,0,0,0,0,0,0,0,0,0,0,0,0,0,0,0,0,0,0,0,0,0,0,0,0,0,0,0,0,0,0,0,0,0,0,0,0,0,0,0,0,0,0,0,0,0,0,0,0,0,0,0,0,0,0,0,0,0,0,0,0,0,0,0,0,0,0,0,0,0,0,0,0,
0,0,0,0,0,0,0,0,0,0,0,0,0,0,0,0,0,0,0,0,0,0,0,0,0,0,0,0,0,0,0,0,0,0,0,0,0,0,0,0,0,0,0,0,0,0,0,0,0,0,0,0,0,0,0,0,0,0,0,0,0,0,0,0,0,0,0,0,0,0,0,0,0,0,0,0,0,0,0,0,
0,0,0,0,0,0,0,0,0,0,0,0,0,0,0,0,0,0,0,0,0,0,0,0,0,0,0,0,0,0,0,0,0,0,0,0,0,0,0,0,0,0,0,0,0,0,0,0,0,0,0,0,0,0,0,0,0,0,0,0,0,0,0,0,0,0,0,0,0,0,0,0,0,0,0,0,0,0,0,0,
0,0,0,0,0,0,0,0,0,0,0,0,0,0,0,0,0,0,0,0,0,0,0,0,0,0,0,0,0,0,0,0,0,0,0,0,0,0,0,0,0,0,0,0,0,0,0,0,0,0,0,0,0,0,0,0,0,0,0,0,0,0,0,0,0,0,0,0,0,0,0,0,0,0,0,0,0,0,0,0,
0,0,0,0,0,0,9154,9154,9154,9154,9154,9154,9154,9154,9154,9154,9154,9155,0,0,0,0,0,0,0,0,0,0,0,0,0,0,0,0,0,0,0,0,0,0,0,0,0,0,0,0,0,0,0,0,0,0,0,0,0,0,0,0,0,0,0,0,0,0,0,0,0,0,0,0,0,0,0,0,0,0,0,0,0,0,
0,0,0,0,0,0,0,986,987,986,987,988,989,0,0,0,0,9256,0,0,0,0,0,0,0,0,0,0,0,0,0,0,0,0,0,0,0,0,0,0,0,0,0,0,0,0,0,0,0,0,0,0,0,0,0,0,0,0,0,0,0,0,0,0,0,0,0,0,0,0,0,0,0,0,0,0,0,0,0,0,
0,0,0,0,0,0,0,1028,1029,1028,1029,1030,1031,0,0,0,0,9256,0,0,0,0,0,0,0,0,0,0,0,0,0,0,0,0,0,0,0,0,0,0,0,0,0,0,0,0,0,0,0,0,0,0,0,2958,0,0,0,0,0,0,0,0,0,0,0,0,0,0,0,0,0,0,0,0,0,0,0,0,0,0,
0,0,0,0,0,0,0,1070,1071,1070,1071,1072,1073,0,0,0,0,9256,0,0,0,0,0,0,0,0,0,0,0,0,0,0,0,0,0,0,0,0,0,0,0,0,0,0,0,0,0,0,0,0,0,0,0,0,0,0,0,0,0,0,0,0,0,0,0,0,0,0,0,0,0,0,0,0,0,0,0,0,0,0,
0,0,0,0,0,0,2526,986,986,987,987,989,989,2530,0,0,0,9256,0,0,0,0,0,0,0,0,0,0,0,0,0,0,0,0,0,0,0,0,0,0,0,0,0,0,0,0,0,0,0,0,0,0,0,0,0,0,0,0,0,0,0,0,0,0,0,0,0,0,0,0,0,0,0,0,0,0,0,0,0,0,
0,0,0,0,0,0,2526,1028,1028,1029,1029,1031,1031,2530,0,0,0,9256,0,0,0,0,0,0,0,0,0,0,0,0,0,0,0,0,0,0,0,0,0,0,0,0,0,0,0,0,0,0,0,0,0,0,0,0,0,0,0,0,0,0,0,0,0,0,0,0,0,0,0,0,0,0,0,0,0,0,0,0,0,0,
0,0,0,0,0,0,2526,1070,1070,1071,1071,1073,1073,2530,0,0,0,9256,0,0,0,0,0,0,0,0,0,0,0,0,0,0,0,0,0,0,0,0,0,0,0,0,0,0,0,0,0,0,0,0,2759,2760,0,0,0,0,0,0,0,0,0,0,0,0,0,0,0,0,0,0,0,0,0,0,0,0,0,0,0,0,
0,0,0,0,0,0,2611,2612,2612,2612,2612,2612,2612,2613,0,0,0,9256,0,0,0,0,0,0,0,0,0,0,0,0,0,0,0,0,0,0,0,0,0,0,0,0,0,0,0,0,0,0,0,0,0,2785,0,0,0,0,0,0,0,0,0,0,0,0,0,0,0,0,0,0,0,0,0,0,0,0,0,0,0,0,
0,0,0,0,0,0,0,0,0,0,0,0,0,0,0,0,0,9256,0,0,0,0,0,0,0,0,0,0,0,0,0,0,0,0,0,0,0,0,0,0,0,0,0,0,0,0,0,0,0,0,2809,2810,0,0,0,0,2958,2958,2833,2833,0,0,0,0,0,0,0,0,0,0,0,0,0,0,0,0,0,0,0,0,
0,0,0,0,0,0,0,0,0,0,0,0,0,0,0,0,0,0,0,0,0,0,0,0,0,0,0,0,0,0,0,0,0,0,0,0,0,0,0,0,0,0,2958,2958,2832,2833,2834,2832,2833,2834,0,0,0,0,0,0,0,0,0,0,0,0,0,0,0,0,0,0,0,0,0,0,0,0,0,0,0,0,0,0,
0,0,0,0,0,0,0,0,0,9404,0,0,0,0,0,0,0,0,0,0,0,0,0,0,0,0,0,0,0,0,0,0,0,0,0,0,0,0,0,0,0,0,0,0,0,0,0,0,0,0,0,0,0,0,0,0,0,0,0,0,0,0,0,0,0,0,0,0,0,0,0,0,0,0,0,0,0,0,0,0,
0,0,0,0,0,0,0,0,0,0,0,0,0,0,0,0,0,0,0,0,0,0,0,0,0,0,0,0,0,0,0,0,0,0,0,0,0,0,0,0,0,0,0,0,0,0,0,0,0,0,0,0,0,0,0,0,0,0,0,0,0,0,0,0,0,0,0,0,0,0,4008,4009,0,0,0,4110,4111,0,0,0,
0,0,0,0,0,0,0,0,0,0,0,0,0,0,0,0,0,0,0,0,0,0,0,0,0,0,0,0,0,0,0,0,0,0,0,0,0,0,0,0,0,0,0,0,0,0,0,0,0,0,0,0,0,0,0,0,0,0,0,0,0,0,0,0,0,0,0,0,0,0,4024,4025,0,0,4038,4126,4127,0,0,0,
0,0,0,0,0,0,0,0,0,0,0,0,0,0,0,0,0,0,0,0,0,0,0,0,0,0,0,0,0,0,0,0,0,0,0,0,0,0,0,0,0,0,0,0,0,0,0,0,0,0,0,0,0,0,0,0,0,0,0,0,0,0,0,0,0,0,0,0,0,4039,4040,4041,0,0,0,0,0,0,0,0,
0,0,0,0,0,0,0,0,0,0,0,0,0,0,0,0,0,0,0,0,0,0,0,0,0,0,0,0,0,0,0,0,0,0,0,0,0,0,0,0,0,0,0,0,0,0,0,0,0,0,0,0,0,0,0,0,0,0,0,0,0,0,0,0,0,0,0,0,0,4055,4056,4057,0,0,0,0,0,0,0,0,
0,0,0,0,0,0,0,0,0,0,0,0,0,0,0,0,0,0,0,0,0,0,0,0,0,0,0,0,0,0,0,0,0,0,0,0,0,0,0,0,0,0,0,0,0,0,0,0,0,0,0,0,0,0,0,0,0,0,0,0,0,0,0,0,0,0,0,0,0,0,0,0,5240,5241,5242,5243,5244,0,0,0,
0,0,0,0,0,0,0,0,0,0,0,0,0,0,0,0,0,0,0,0,0,0,0,0,0,0,0,0,0,0,0,0,0,0,0,0,0,0,0,0,0,0,0,0,0,0,0,0,0,0,0,0,0,0,0,0,0,0,0,0,0,0,0,0,0,0,0,0,0,0,0,0,5268,5269,5270,5271,5272,0,0,0,
0,0,0,0,0,0,0,0,0,0,0,0,0,0,0,0,0,0,0,0,0,0,0,0,0,0,0,0,0,0,0,0,0,0,0,0,0,0,0,0,0,0,0,0,0,0,0,0,0,0,0,0,0,0,0,0,0,0,0,0,0,0,0,0,0,0,0,0,0,0,0,0,5296,5297,5298,5299,5300,0,0,0,
0,0,0,0,0,0,0,0,0,0,0,0,0,0,0,0,0,0,0,0,0,0,0,0,0,0,0,0,0,0,0,0,0,0,0,0,0,0,0,0,0,0,0,0,0,0,0,0,0,0,0,0,0,0,0,0,0,0,0,0,0,0,0,0,0,0,0,0,0,0,0,0,0,0,0,0,0,0,0,0,
0,0,0,0,0,0,0,0,0,0,0,0,0,0,0,0,0,0,0,0,0,0,0,0,0,0,0,0,0,0,0,0,0,0,0,0,0,0,0,0,0,0,0,0,0,0,0,0,0,0,0,0,0,0,0,0,0,0,0,0,0,0,0,0,0,0,0,0,0,0,0,0,0,0,0,0,0,0,0,0,
0,0,0,0,0,0,0,0,0,0,0,0,0,0,0,0,0,0,0,0,0,0,0,0,0,0,0,0,0,0,0,0,0,0,0,0,0,0,0,0,0,0,0,0,0,0,0,0,0,0,0,0,0,0,0,0,0,0,0,0,0,0,0,0,0,0,0,0,0,0,0,0,0,0,0,0,0,0,0,0
</data>
 </layer>
 <layer id="7" name="arboles dos" width="80" height="50">
  <data encoding="csv">
0,0,0,0,11219,0,0,0,0,0,0,0,0,0,0,0,0,0,0,11299,4382,4383,4384,4385,4386,4055,4056,4057,0,0,0,0,0,0,0,0,0,0,0,0,0,0,0,0,0,0,0,0,0,0,0,0,0,0,4313,4314,4315,4316,4317,0,4382,4383,4384,4385,4386,0,0,0,0,0,0,0,0,0,0,0,0,0,0,0,
11259,0,0,0,0,0,0,0,11323,0,0,0,0,0,11233,0,11299,0,0,0,4405,4406,4407,4408,4409,0,0,0,0,0,0,0,0,0,0,0,0,0,0,0,0,0,0,0,0,0,0,0,0,0,0,0,0,0,4336,4337,4338,4339,4340,0,4405,4406,4407,4408,4409,0,0,0,0,4290,4291,4292,4293,4294,0,0,0,0,0,0,
0,0,0,0,0,0,0,0,11323,0,0,11194,0,0,0,0,0,0,0,0,4428,4429,4430,4431,4432,0,0,0,0,0,0,0,0,0,0,0,0,0,0,0,0,0,0,0,0,0,0,0,0,0,0,0,0,0,4359,4360,4361,4362,4363,0,4428,4429,4430,4431,4432,0,0,0,0,4313,4314,4315,4316,4317,0,0,0,0,0,0,
0,0,0,0,0,0,11259,0,0,0,0,0,0,0,0,0,0,0,0,0,4451,4452,4453,4454,4455,4291,4292,4293,4294,0,0,0,0,0,4290,4291,4292,4293,4294,0,0,0,0,0,0,0,0,0,4290,4291,4292,4293,4294,0,4382,4383,4384,4385,4386,0,4451,4452,4453,4454,4455,0,0,0,0,4336,4337,4338,4339,4340,0,0,0,0,0,0,
0,0,0,0,0,0,0,0,0,11323,0,0,0,0,0,0,0,0,11194,0,0,0,0,0,4313,4314,4315,4316,4317,0,0,0,0,0,4313,4314,4315,4316,4317,0,0,0,0,0,0,0,0,0,4313,4314,4315,4316,4317,0,4405,4406,4407,4408,4409,0,0,0,0,4007,2983,2983,4008,4009,0,4359,4360,4361,4362,4363,0,0,0,0,0,0,
0,0,0,0,0,0,0,0,0,0,0,0,0,11192,11193,0,0,0,4290,4291,4292,4293,4294,0,4336,4337,4338,4339,4340,0,0,0,0,0,4336,4337,4338,4339,4340,4290,4291,4292,4293,4294,4007,4008,4009,0,4336,4337,4338,4339,4340,0,4428,4429,4430,4431,4432,0,0,0,0,4023,662,664,4024,4025,0,4382,4383,4384,4385,4386,0,0,0,0,0,0,
0,0,11312,0,0,6680,11194,0,11270,11271,0,0,0,11205,11206,0,0,0,4313,4314,4315,4316,4317,0,4359,4360,4361,4362,4363,0,0,0,0,0,4359,4360,4361,4362,4363,4313,4314,4315,4316,4317,4023,4024,4025,0,4359,4360,4361,4362,4363,0,4451,4452,4453,4454,4290,4291,4292,4293,4294,4039,871,2983,4040,4041,0,4405,4406,4407,4408,4409,0,0,0,0,0,0,
0,0,0,0,0,0,0,0,11283,11284,0,0,0,11321,0,0,0,0,4336,4337,4338,4339,4340,0,4382,4383,4384,4385,4386,0,0,0,0,0,4382,4383,4384,4385,4386,4336,4337,4338,4339,4340,4039,4040,4041,0,4382,4383,4384,4385,4386,0,0,0,0,0,4313,4314,4315,4316,4317,4055,871,2983,4056,4057,0,4428,4429,4430,4431,4432,0,0,0,0,0,0,
0,0,0,0,0,0,0,0,0,0,0,0,0,0,0,0,0,0,4359,4360,4361,4362,4363,0,4405,4406,4407,4408,4409,0,0,0,0,0,4405,4406,4407,4408,4409,4359,4360,4361,4362,4363,4055,4056,4057,0,4405,4406,4407,4408,4409,0,0,4007,4008,4009,4336,4337,4338,4339,4340,0,0,0,0,0,0,4451,4452,4453,4454,4455,0,0,0,0,0,0,
0,0,0,0,0,0,0,0,0,0,0,0,0,0,0,0,0,0,4382,4383,4384,4385,4386,0,4428,4429,4430,4431,4432,0,0,0,0,0,4428,4429,4430,4431,4432,4382,4383,4384,4385,4386,0,0,0,0,4428,4429,4430,4431,4432,0,0,4023,4024,4025,4359,4360,4361,4362,4363,0,0,0,0,7182,0,0,0,0,0,0,0,0,0,0,0,0,
0,11192,11193,0,11296,0,0,0,0,0,0,0,0,0,0,0,0,0,4405,4406,4407,4408,4409,0,4451,4452,4453,4454,4455,0,0,0,0,0,4451,4452,4453,4454,4455,4405,4406,4407,4408,4409,0,0,0,0,4451,4452,4453,4454,4455,0,0,4039,4040,4041,4382,4383,4384,4385,4386,0,0,0,0,7207,0,0,0,0,0,0,0,0,0,0,0,0,
11299,11205,11206,0,0,11299,0,0,0,11296,0,0,0,0,0,0,0,0,4428,4429,4430,4431,4007,4008,4009,0,0,0,0,0,0,0,0,0,0,0,0,0,0,4428,4429,4430,4431,4432,0,0,0,0,0,0,0,0,0,0,0,4055,4056,4057,4405,4406,4407,4408,4409,0,0,0,0,7207,0,0,0,0,0,0,0,0,0,0,0,0,
0,0,0,0,0,0,0,11192,11193,0,0,0,0,0,0,0,0,0,4451,4452,4453,4454,4023,4024,4025,0,0,0,0,0,0,0,0,0,0,0,0,0,0,4451,4452,4453,4454,4455,0,0,0,0,0,0,0,0,0,0,0,0,0,0,4428,4429,4430,4431,4432,0,0,0,0,7207,0,0,0,0,0,0,0,0,0,0,0,0,
0,0,0,0,0,11296,0,11205,11206,0,0,0,0,0,0,0,0,0,0,0,0,0,4039,4040,4041,0,0,0,0,0,0,0,0,0,0,0,0,0,0,0,0,0,0,0,0,0,0,0,0,0,0,0,0,0,0,0,0,0,4451,4452,4453,4454,4455,0,0,0,0,7207,0,0,0,0,0,0,0,0,0,0,0,0,
0,0,0,0,0,0,0,0,0,0,0,0,0,0,0,0,0,0,0,0,0,0,4055,4056,4057,0,0,0,0,0,0,0,0,0,0,0,0,0,0,0,0,0,0,0,0,0,0,0,0,0,0,0,0,0,0,0,0,0,0,0,0,0,0,0,0,0,0,0,0,0,0,0,0,0,0,0,0,0,0,0,
0,0,0,0,0,0,0,0,0,0,0,0,0,0,0,0,0,0,0,0,0,0,0,0,0,0,0,0,0,0,0,0,0,0,0,0,0,0,0,0,0,0,0,0,0,0,0,0,0,0,0,0,0,0,0,0,0,0,0,0,0,0,0,0,0,0,0,0,0,0,0,0,0,0,0,0,0,0,0,0,
0,0,11296,0,0,0,0,0,0,0,0,0,0,0,0,0,0,0,0,0,0,0,0,0,0,0,0,0,0,0,0,0,649,650,651,651,651,651,651,651,651,651,651,651,651,651,651,651,652,653,654,0,0,0,0,0,0,0,0,0,0,0,0,0,0,0,0,0,0,0,0,0,0,0,0,0,0,0,0,0,
0,0,0,0,0,0,0,0,0,0,0,0,0,0,0,0,0,0,0,0,0,0,0,0,0,0,0,0,0,0,0,0,691,692,693,693,693,693,693,693,693,693,693,693,693,693,693,693,694,695,696,0,0,0,0,0,0,0,0,0,0,0,0,0,0,0,0,0,0,0,0,0,0,0,0,0,0,0,0,0,
0,0,0,0,0,0,0,0,0,0,0,0,0,0,0,0,0,0,0,0,0,0,0,0,0,0,0,0,0,0,0,0,6261,734,735,735,735,735,1023,1024,735,735,735,1023,1024,735,735,735,736,737,6261,0,0,0,0,0,0,0,0,0,0,0,0,0,0,0,0,0,0,0,0,0,0,0,0,0,0,0,0,0,
0,0,0,0,0,0,0,0,0,0,0,0,0,0,0,0,0,0,0,0,0,0,0,0,0,0,0,0,0,0,0,0,775,776,777,777,777,6187,6188,6189,6190,6187,6187,6188,6189,6190,777,777,778,779,780,0,0,0,0,0,0,0,0,0,0,0,0,0,0,0,0,0,0,0,0,0,0,0,0,0,0,0,0,0,
0,0,0,0,0,0,0,0,0,0,0,0,0,0,0,0,0,0,0,0,0,0,0,0,0,0,0,0,0,0,0,0,817,818,0,0,0,6212,6187,6188,6189,6187,6188,6189,6190,6215,0,0,0,821,822,0,0,0,0,0,0,0,0,0,0,0,0,0,0,0,0,0,0,0,0,0,0,0,0,0,0,0,0,0,
0,0,0,0,0,0,0,0,0,0,0,0,0,0,0,0,0,0,0,0,0,0,0,0,0,0,0,0,0,0,0,0,859,0,0,0,0,6237,6187,6188,6189,6187,6188,6189,6190,6240,0,0,0,0,864,0,0,0,0,0,0,0,0,0,0,0,0,0,0,0,0,0,0,0,0,0,0,0,0,0,0,0,0,0,
0,0,0,0,0,0,0,0,0,0,0,0,0,0,0,0,0,0,0,0,0,0,0,0,0,0,0,0,0,0,0,0,901,902,0,0,0,0,6212,6213,6214,6212,6213,6214,6215,0,0,0,0,905,906,0,0,0,0,0,0,0,0,0,0,0,0,0,0,0,0,0,0,0,0,0,0,0,0,0,0,0,0,0,
0,0,0,0,0,0,0,0,0,0,0,0,0,0,0,0,0,0,0,0,0,0,0,0,0,0,0,0,0,0,0,0,943,944,945,945,945,945,6237,6238,6239,6237,6238,6239,6240,945,945,945,945,947,948,0,0,0,0,0,0,0,0,0,0,0,0,0,0,0,0,0,0,0,0,0,0,0,0,0,0,0,0,0,
0,0,0,0,0,0,0,0,0,0,0,0,0,0,0,0,0,0,0,0,0,0,0,0,0,0,0,0,0,0,0,0,985,986,987,987,989,986,987,987,989,1158,986,987,987,989,986,987,987,989,990,0,0,0,0,0,0,0,0,0,0,0,0,0,0,0,0,0,0,0,0,0,0,0,0,0,0,0,0,0,
0,0,0,0,0,0,0,0,0,0,0,0,0,0,0,0,0,0,0,0,0,0,0,0,0,0,0,0,0,0,0,0,1027,1028,1029,1029,1031,1028,1029,1029,1031,1200,1028,1029,1029,1031,1028,1029,1029,1031,1032,0,0,0,0,0,0,0,0,0,0,0,0,0,0,0,0,0,0,0,0,0,0,0,0,0,0,0,0,0,
0,0,0,0,0,0,0,691,651,651,651,652,696,0,0,0,0,0,0,0,0,0,0,0,0,0,0,0,0,0,0,0,0,1070,1071,1071,1073,1070,1071,1071,1073,1242,1070,1071,1071,1073,1070,1071,1071,1073,0,0,0,0,0,0,0,0,0,0,0,0,0,0,0,0,0,0,0,0,0,0,0,0,0,0,0,0,0,0,
0,0,0,0,0,0,0,859,0,0,0,0,864,0,0,0,0,0,0,0,0,0,0,0,0,0,0,0,0,0,0,0,0,0,0,0,0,0,0,0,0,0,0,0,0,0,0,0,0,0,0,0,0,0,0,0,0,0,0,0,0,0,0,0,0,0,0,0,0,0,0,0,0,0,0,0,0,0,0,0,
0,0,0,0,0,0,0,859,0,0,0,0,864,0,0,0,0,0,0,0,0,0,0,0,0,0,0,0,0,0,0,0,0,0,0,0,0,0,0,0,0,0,0,0,0,0,0,0,0,0,0,0,0,0,0,0,0,0,0,0,0,0,0,0,0,0,0,0,0,0,0,0,0,0,0,0,0,0,0,0,
0,0,0,0,0,0,0,944,946,945,945,946,947,0,0,0,0,0,0,0,0,0,0,0,0,0,0,0,0,0,0,0,0,0,0,0,0,0,0,0,0,0,0,0,0,0,0,0,0,0,0,0,0,0,0,0,0,0,0,0,0,0,0,0,0,0,0,0,0,0,0,0,0,0,0,0,0,0,0,0,
0,0,0,0,0,0,0,0,986,987,0,989,0,0,0,0,0,0,0,0,0,0,0,0,0,0,0,0,0,0,0,0,0,0,0,0,0,0,0,0,0,0,0,0,0,0,0,0,0,0,0,0,0,0,0,0,0,0,0,0,0,0,0,0,0,0,0,0,0,0,0,0,0,0,0,0,0,0,0,0,
0,0,0,0,0,0,0,0,1028,1029,0,1031,0,0,0,0,0,0,0,0,0,0,0,0,0,0,0,0,0,0,0,0,0,0,0,0,0,0,0,0,0,0,0,0,0,0,0,0,0,0,0,0,0,0,0,0,0,0,0,0,0,0,0,0,0,0,0,0,0,0,0,0,0,0,0,0,0,0,0,0,
0,0,0,0,0,0,2484,0,1070,1071,0,1073,0,2488,0,0,0,0,0,0,0,0,0,0,0,0,0,0,0,0,0,0,0,0,0,0,0,0,0,0,0,0,0,0,0,0,0,0,0,0,0,0,0,0,0,0,0,0,0,0,0,0,0,0,0,0,0,0,0,0,0,0,0,0,0,0,0,0,0,0,
0,0,0,0,0,0,0,0,0,0,0,0,0,0,0,0,0,0,0,0,0,0,0,0,0,0,0,0,0,0,0,0,0,0,0,0,0,0,0,0,0,0,0,0,0,0,0,0,0,0,0,0,0,0,0,0,0,0,0,0,0,0,0,0,0,0,0,0,0,0,0,0,0,0,0,0,0,0,0,0,
0,0,0,0,0,0,0,0,0,0,0,0,0,0,0,0,0,0,0,0,0,0,0,0,0,0,0,0,0,0,0,0,0,0,0,0,0,0,0,0,0,0,0,0,0,0,0,0,0,0,0,0,0,0,0,0,0,0,0,0,0,0,0,0,0,0,0,0,0,0,0,0,0,0,0,0,0,0,0,0,
0,0,0,0,0,0,0,0,0,0,0,0,0,0,0,0,0,0,0,0,0,0,0,0,0,0,0,0,0,0,0,0,0,0,0,0,0,0,0,0,0,0,0,0,0,0,0,0,0,0,0,0,0,0,0,0,0,0,0,0,0,0,0,0,0,0,0,0,0,0,0,0,0,0,0,0,0,0,0,0,
0,0,0,0,0,0,0,0,0,0,0,0,0,0,0,0,0,0,0,0,0,0,0,0,0,0,0,0,0,0,0,0,0,0,0,0,0,0,0,0,0,0,0,0,0,0,0,0,0,0,0,0,0,0,0,0,0,0,0,0,0,0,0,0,0,0,0,0,0,0,0,0,0,0,0,0,0,0,0,0,
0,0,0,0,0,0,0,0,0,0,0,0,0,0,0,0,0,0,0,0,0,0,0,0,0,0,0,0,0,0,0,0,0,0,0,0,0,0,0,0,0,0,0,0,0,0,0,0,0,0,0,0,0,0,0,0,0,0,0,0,0,0,0,0,0,0,0,0,0,0,0,0,0,0,0,0,0,0,0,0,
0,0,0,0,0,0,0,0,0,0,0,0,0,0,0,0,0,0,0,0,0,0,0,0,0,0,0,0,0,0,0,0,0,0,0,0,0,0,0,0,0,0,0,0,0,0,0,0,0,0,0,0,0,0,0,0,0,0,0,0,0,0,0,0,0,0,0,0,0,0,0,0,0,0,0,0,0,0,0,0,
0,0,0,0,0,0,0,0,0,9404,0,0,0,0,0,0,0,0,0,0,0,0,0,0,0,0,0,0,0,0,0,0,0,0,0,0,0,0,0,0,0,0,0,0,0,0,0,0,0,0,0,0,0,0,0,0,0,0,0,0,0,0,0,0,0,0,0,0,0,0,0,0,0,0,0,0,0,0,0,0,
0,0,0,0,0,0,0,0,0,0,0,0,0,0,0,0,0,0,0,0,0,0,0,0,0,0,0,0,0,0,0,0,0,0,0,0,0,0,0,0,0,0,0,0,0,0,0,0,0,0,0,0,0,0,0,0,0,0,0,0,0,0,0,0,0,0,0,0,0,0,0,0,0,0,0,0,0,0,0,0,
0,0,0,0,0,0,0,0,0,0,0,0,0,0,0,0,0,0,0,0,0,0,0,0,0,0,0,0,0,0,0,0,0,0,0,0,0,0,0,0,0,0,0,0,0,0,0,0,0,0,0,0,0,0,0,0,0,0,0,0,0,0,0,0,0,0,0,0,0,0,0,0,0,0,0,0,0,0,0,0,
0,0,0,0,0,0,0,0,0,0,0,0,0,0,0,0,0,0,0,0,0,0,0,0,0,0,0,0,0,0,0,0,0,0,0,0,0,0,0,0,0,0,0,0,0,0,0,0,0,0,0,0,0,0,0,0,0,0,0,0,0,0,0,0,0,0,0,0,0,0,0,0,0,0,0,0,0,0,0,0,
0,0,0,0,0,0,0,0,0,0,0,0,0,0,0,0,0,0,0,0,0,0,0,0,0,0,0,0,0,0,0,0,0,0,0,0,0,0,0,0,0,0,0,0,0,0,0,0,0,0,0,0,0,0,0,0,0,0,0,0,0,0,0,0,0,0,0,0,0,0,0,0,0,0,0,0,0,0,0,0,
0,0,0,0,0,0,0,0,0,0,0,0,0,0,0,0,0,0,0,0,0,0,0,0,0,0,0,0,0,0,0,0,0,0,0,0,0,0,0,0,0,0,0,0,0,0,0,0,0,0,0,0,0,0,0,0,0,0,0,0,0,0,0,0,0,0,0,0,0,0,0,0,0,0,0,0,0,0,0,0,
0,0,0,0,0,0,0,0,0,0,0,0,0,0,0,0,0,0,0,0,0,0,0,0,0,0,0,0,0,0,0,0,0,0,0,0,0,0,0,0,0,0,0,0,0,0,0,0,0,0,0,0,0,0,0,0,0,0,0,0,0,0,0,0,0,0,0,0,0,0,0,0,0,0,0,0,0,0,0,0,
0,0,0,0,0,0,0,0,0,0,0,0,0,0,0,0,0,0,0,0,0,0,0,0,0,0,0,0,0,0,0,0,0,0,0,0,0,0,0,0,0,0,0,0,0,0,0,0,0,0,0,0,0,0,0,0,0,0,0,0,0,0,0,0,0,0,0,0,0,0,0,0,0,0,0,0,0,0,0,0,
0,0,0,0,0,0,0,0,0,0,0,0,0,0,0,0,0,0,0,0,0,0,0,0,0,0,0,0,0,0,0,0,0,0,0,0,0,0,0,0,0,0,0,0,0,0,0,0,0,0,0,0,0,0,0,0,0,0,0,0,0,0,0,0,0,0,0,0,0,0,0,0,0,0,0,0,0,0,0,0,
0,0,0,0,0,0,0,0,0,0,0,0,0,0,0,0,0,0,0,0,0,0,0,0,0,0,0,0,0,0,0,0,0,0,0,0,0,0,0,0,0,0,0,0,0,0,0,0,0,0,0,0,0,0,0,0,0,0,0,0,0,0,0,0,0,0,0,0,0,0,0,0,0,0,0,0,0,0,0,0,
0,0,0,0,0,0,0,0,0,0,0,0,0,0,0,0,0,0,0,0,0,0,0,0,0,0,0,0,0,0,0,0,0,0,0,0,0,0,0,0,0,0,0,0,0,0,0,0,0,0,0,0,0,0,0,0,0,0,0,0,0,0,0,0,0,0,0,0,0,0,0,0,0,0,0,0,0,0,0,0
</data>
 </layer>
 <layer id="9" name="techo1" width="80" height="50">
  <data encoding="csv">
0,0,0,4672,4673,4674,4675,4676,4677,4678,6681,0,0,0,0,0,6680,6681,0,0,0,0,0,0,0,0,0,0,0,0,0,0,0,0,0,0,0,0,0,0,0,0,0,0,0,0,0,0,0,0,0,0,0,0,0,0,0,0,0,0,0,0,0,0,0,0,0,0,0,0,0,0,0,0,0,0,0,0,0,0,
0,0,6684,4700,4701,4702,4703,4704,4705,4706,0,0,0,0,0,0,0,0,0,0,0,0,0,0,0,0,0,0,0,0,0,0,0,0,0,0,0,0,0,0,0,0,0,0,0,0,0,0,0,0,0,0,0,0,0,0,0,0,0,0,0,0,0,0,4134,4135,4136,0,0,0,0,0,0,0,0,0,0,0,0,0,
0,0,6680,4728,4729,4730,4731,4732,4733,4734,0,0,0,0,0,6559,6560,6561,6562,6563,6564,0,0,0,0,0,0,0,0,0,0,0,0,0,0,0,0,0,0,0,0,0,0,0,0,0,0,0,0,0,0,0,0,0,0,0,0,0,0,0,0,0,0,0,4147,4148,4149,0,0,0,0,0,0,0,0,0,0,0,0,0,
0,0,0,4756,4757,4758,4759,4760,4761,4762,0,0,6680,6681,0,6584,6585,6586,6587,6588,6589,0,0,0,0,0,0,0,0,0,0,0,0,0,0,0,0,0,0,0,0,0,0,0,0,0,0,0,0,0,0,0,0,0,0,0,0,0,0,0,0,0,0,0,4160,4161,4162,0,0,0,0,0,0,0,0,0,0,0,0,0,
0,0,0,4784,4785,4786,4787,4788,4789,4790,0,0,0,0,0,6609,6610,6611,6612,6613,6614,0,0,0,0,0,0,0,0,0,0,0,0,0,0,0,0,0,0,0,0,0,0,0,0,0,0,0,0,0,0,0,0,0,0,0,0,0,0,0,0,0,0,0,4173,4174,4175,0,0,0,0,0,0,0,0,0,0,0,0,0,
6680,0,0,4812,4813,4814,4815,4816,4817,4818,0,0,0,0,0,0,0,0,0,0,0,0,0,0,0,0,0,0,0,0,0,0,0,0,0,0,0,0,0,0,0,0,0,0,0,0,0,0,0,0,0,0,0,0,0,0,0,0,0,0,0,0,0,0,4186,4187,4188,0,0,0,0,0,0,0,0,0,0,0,0,0,
0,0,0,4840,4841,4842,4843,4844,4845,4846,0,0,0,6680,6680,6681,0,0,0,0,0,0,0,0,0,0,0,0,0,0,0,0,0,0,0,0,0,0,0,0,0,0,0,0,0,0,0,0,0,0,0,0,0,0,0,0,0,0,0,0,0,0,0,654,4199,4200,4201,0,0,0,0,0,0,0,0,0,0,0,0,0,
0,0,0,4868,4869,4870,4871,4872,4873,4874,0,0,0,0,0,0,0,0,0,0,0,0,0,0,0,0,0,0,0,0,0,0,0,0,0,0,0,0,0,0,0,0,0,0,0,0,0,0,0,0,0,0,0,0,0,0,0,0,0,0,0,0,0,654,0,6684,6685,6686,6686,6684,6685,6686,0,0,0,0,0,0,0,0,
0,0,0,4896,4897,4898,4899,4900,4901,4902,0,0,0,0,6559,6560,6561,6562,6563,6564,0,0,0,0,0,0,0,0,0,0,0,0,0,0,0,0,0,0,0,0,0,0,0,0,0,0,0,0,0,0,0,0,0,0,0,0,0,0,0,0,0,0,0,0,6684,6685,6686,6686,0,6684,6685,6686,0,0,0,0,0,0,0,0,
0,0,0,4924,4925,4926,4927,4928,4929,4930,0,0,0,0,6584,6585,6586,6587,6588,6589,0,0,0,0,0,0,0,0,0,0,0,0,0,0,0,0,0,0,0,0,0,0,0,0,0,0,0,0,0,0,0,0,0,0,0,0,0,0,0,0,0,0,0,0,0,0,0,0,0,0,0,0,0,0,0,0,0,0,0,0,
0,0,6680,6681,0,0,0,0,6680,6681,0,0,0,0,6609,6610,6611,6612,6613,6614,0,0,0,0,0,0,0,0,0,0,0,0,0,0,0,0,0,0,0,0,0,0,0,0,0,0,0,0,0,0,0,0,0,0,0,0,0,0,0,0,0,0,0,0,0,0,0,0,0,0,0,0,0,0,0,0,0,0,0,0,
0,6680,0,0,0,0,0,0,0,0,0,0,0,0,0,0,0,0,0,0,0,0,0,0,0,0,0,0,0,0,0,0,0,0,0,0,0,0,0,0,0,0,0,0,0,0,0,0,0,0,0,0,0,0,0,0,0,0,0,0,0,0,0,0,0,0,0,0,0,0,0,0,0,0,0,0,0,0,0,0,
0,0,0,6684,6685,6686,0,0,0,0,0,0,0,0,0,0,0,0,0,0,0,0,0,0,0,0,0,0,0,0,0,0,0,0,0,0,0,0,0,0,0,0,0,0,0,0,0,0,0,0,0,0,0,0,0,0,0,0,0,0,0,0,0,0,0,0,0,0,0,0,0,0,0,0,0,0,0,0,0,0,
0,0,0,0,0,0,0,6680,6681,0,0,0,0,0,0,0,0,0,0,0,0,0,0,0,0,0,0,0,0,0,0,0,0,0,6063,6064,0,0,0,0,0,0,0,0,0,0,0,6063,6064,0,0,0,0,0,0,0,0,0,0,0,0,0,0,0,0,0,0,0,0,0,0,0,0,0,0,0,0,0,0,0,
0,0,0,0,0,0,0,0,0,0,0,0,0,0,1057,0,0,0,0,0,0,0,0,0,0,0,0,0,0,0,0,0,0,6087,6088,6089,6090,0,0,0,0,0,0,0,0,0,6087,6088,6089,6090,0,0,0,0,0,0,0,0,0,0,0,0,0,0,0,0,0,0,0,0,0,0,0,0,0,0,0,0,0,0,
0,0,0,0,0,0,0,0,0,0,0,0,0,0,1057,0,0,0,0,0,0,0,0,0,0,0,0,0,0,0,0,0,6111,6112,6113,6114,6115,6116,6063,6064,0,0,0,6063,6064,6111,6112,6113,6114,6115,6116,0,0,0,0,0,0,0,0,0,0,0,0,0,0,0,0,0,0,0,0,0,0,0,0,0,0,0,0,0,
0,0,0,0,0,0,0,0,0,0,0,0,0,0,0,0,0,0,0,0,0,0,0,0,0,0,0,0,0,0,0,0,6136,6137,6138,6139,6140,6141,6088,6089,6188,6189,6190,6088,6089,6136,6137,6138,6139,6140,6141,0,0,0,0,0,0,0,0,0,0,0,0,0,0,0,0,0,0,0,0,0,0,0,0,0,0,0,0,0,
0,0,0,0,0,0,0,0,0,0,0,0,0,0,0,0,0,0,1147,1147,1147,1147,0,0,0,0,0,0,0,0,0,0,6161,6162,6138,6139,6165,6166,6113,6114,6213,6214,6215,6113,6114,6161,6162,0,0,6165,6166,0,0,0,0,0,0,0,0,0,0,0,0,0,0,0,0,0,0,0,0,0,0,0,0,0,0,0,0,0,
0,0,0,0,0,0,0,0,0,0,0,0,0,0,0,7229,7230,1147,1147,1147,1147,1147,0,0,0,0,0,0,0,0,0,0,6186,6162,0,0,6190,6191,6138,6139,6238,6239,6240,6138,6139,6186,0,0,0,6190,6191,0,0,0,0,0,0,0,0,0,0,0,0,0,0,0,0,0,0,0,0,0,0,0,0,0,0,0,0,0,
0,0,0,0,0,0,0,0,0,0,0,0,0,0,1147,1147,1147,1147,0,0,0,0,0,0,0,0,0,0,0,0,0,0,6186,0,6063,6064,6190,6191,0,0,0,0,0,0,0,0,0,6063,6064,0,0,0,0,0,0,0,0,0,0,0,0,0,0,0,0,0,0,0,0,0,0,0,0,0,0,0,0,0,0,0,
0,0,0,0,0,0,0,0,0,0,0,0,0,0,0,0,0,0,0,0,0,0,0,0,0,0,0,0,0,0,0,0,0,6087,6088,6089,6090,0,0,0,0,0,0,0,0,0,6087,6088,6089,6090,0,0,0,0,0,0,0,0,0,0,0,0,0,0,0,0,0,0,0,0,0,0,0,0,0,0,0,0,0,0,
0,0,0,0,0,0,0,0,0,0,0,0,0,0,0,0,0,0,0,0,0,0,0,0,0,0,0,0,0,0,0,0,6111,6112,6113,6114,6115,6116,0,0,0,0,0,0,0,6111,6112,6113,6114,6115,6116,0,0,0,0,0,0,0,0,0,0,0,0,0,0,0,0,0,0,0,0,0,0,0,0,0,0,0,0,0,
0,0,0,0,0,0,0,0,0,0,0,0,0,0,0,0,0,0,0,0,0,0,0,0,0,0,0,0,0,0,0,0,6136,6137,6138,6139,6140,6141,6187,6188,6189,6187,6188,6189,6190,6136,6137,6138,6139,6140,6141,0,0,0,0,0,0,0,0,0,0,0,0,0,0,0,0,0,0,0,0,0,0,0,0,0,0,0,0,0,
0,0,0,0,0,0,0,0,0,0,0,0,0,0,0,0,0,0,0,0,0,0,0,0,0,0,0,0,0,0,0,0,6161,6162,0,0,6165,6166,6212,6213,6214,6212,6213,6214,6215,6161,6162,0,0,6165,6166,0,0,0,0,0,0,0,0,0,0,0,0,0,0,0,0,0,0,0,0,0,0,0,0,0,0,0,0,0,
0,0,0,0,0,0,0,0,0,0,0,0,0,0,0,0,0,0,0,0,0,0,0,0,0,0,0,0,0,0,0,0,6186,0,0,0,0,6191,6237,6238,6239,6237,6238,6239,6240,6186,0,0,0,0,6191,0,0,0,0,0,0,0,0,0,0,0,0,0,0,0,0,0,0,0,0,0,0,0,0,0,0,0,0,0,
0,0,0,0,0,0,0,0,0,0,0,0,0,0,0,0,0,0,0,0,0,0,0,0,0,0,0,0,0,0,0,0,0,0,0,0,0,0,7207,7208,7209,7209,7207,7208,7209,0,0,0,0,0,0,0,0,0,0,0,0,0,0,0,0,0,0,0,0,0,0,0,0,0,0,0,0,0,0,0,0,0,0,0,
0,0,0,0,0,6254,6179,6179,6180,6179,6180,6181,6182,6182,6257,0,0,0,0,0,0,0,0,0,0,0,0,0,0,0,0,0,0,0,0,0,0,0,0,0,0,0,0,0,0,0,0,0,0,0,0,0,0,0,0,0,0,0,0,0,0,0,0,0,0,0,0,0,0,0,0,0,0,0,0,0,0,0,0,0,
0,0,0,0,0,0,6204,6204,6205,6204,6205,6206,6207,6207,0,0,0,0,0,0,0,0,0,0,0,0,0,0,0,0,0,0,0,0,0,0,0,0,0,0,0,0,0,0,0,0,0,0,0,0,0,0,0,0,0,0,0,0,0,0,0,0,0,0,0,0,0,0,0,0,0,0,0,0,0,0,0,0,0,0,
0,0,0,0,0,0,6229,6229,6230,6229,6230,6231,6232,6232,0,0,0,0,0,0,0,0,0,0,0,0,0,0,0,0,0,0,0,0,0,0,0,0,0,0,0,0,0,0,0,0,0,0,0,0,0,0,0,0,0,0,0,0,0,0,0,0,0,0,0,0,0,0,0,0,0,0,0,0,0,0,0,0,0,0,
0,0,9202,9154,9154,9154,6254,6229,6230,6229,6230,6231,6232,6257,0,0,0,0,0,0,0,0,0,0,0,0,0,0,0,0,0,0,0,0,0,0,0,0,0,0,0,0,0,0,0,0,0,0,0,0,0,0,0,0,0,0,0,0,0,0,0,0,0,0,0,0,0,0,0,0,0,0,0,0,0,0,0,0,0,0,
0,0,9252,0,0,0,0,7207,8904,8905,8904,8905,7209,0,0,0,0,0,0,0,0,0,0,0,0,0,0,0,0,0,0,0,0,0,0,0,0,0,0,0,0,0,0,0,0,0,0,0,0,0,0,0,0,0,0,0,0,0,0,0,0,0,0,0,0,0,0,0,0,0,0,0,0,0,0,0,0,0,0,0,
0,0,9252,0,0,0,0,0,8954,8955,8954,8955,0,0,0,0,0,0,0,0,0,0,0,0,0,0,0,0,0,0,0,0,0,0,0,0,0,0,0,0,0,0,0,0,0,0,0,0,0,0,0,0,0,0,0,0,0,0,0,0,0,0,0,0,0,0,0,0,0,0,0,0,0,0,0,0,0,0,0,0,
0,0,9252,0,0,0,0,0,0,0,0,0,0,0,0,0,0,0,0,0,0,0,0,0,0,0,0,0,0,0,0,0,0,0,0,0,0,0,0,0,0,0,0,0,0,0,0,0,0,0,0,0,0,0,0,0,0,0,0,0,0,0,0,0,0,0,0,0,0,0,0,0,0,0,0,0,0,0,0,0,
0,0,9252,0,0,0,0,0,6254,6180,6181,6257,0,0,0,0,0,0,0,0,0,0,0,0,0,0,0,0,0,0,0,0,0,0,0,0,0,0,0,0,0,0,0,0,0,0,0,0,0,0,0,0,0,0,0,0,0,0,0,0,0,0,0,0,0,0,0,0,0,0,0,0,0,0,0,0,0,0,0,0,
0,0,9252,0,0,0,0,0,0,6230,6231,0,0,0,0,0,0,0,0,0,0,0,0,0,0,0,0,0,0,0,0,0,0,0,0,0,0,0,0,0,0,0,0,0,0,0,0,0,0,0,0,0,0,0,0,0,0,0,0,0,0,0,0,0,0,0,0,0,0,0,0,0,0,0,0,0,0,0,0,0,
0,0,9252,0,0,0,0,0,0,5354,5355,0,0,0,0,0,0,0,0,0,0,0,0,0,0,0,0,0,0,0,0,0,0,0,0,0,0,0,0,0,0,0,0,0,0,0,0,0,0,0,0,0,0,0,0,0,0,0,0,0,0,0,0,0,0,0,0,0,0,0,0,0,0,0,0,0,0,0,0,0,
0,0,9252,0,0,0,0,0,0,5379,5380,0,0,0,0,0,0,0,0,0,0,0,0,0,0,0,0,0,0,0,0,0,0,0,0,0,0,0,0,0,0,0,0,0,0,0,0,0,0,0,0,0,0,0,0,0,0,0,0,0,0,0,0,0,0,0,0,0,0,0,0,0,0,0,0,0,0,0,0,0,
0,0,9252,0,0,0,0,0,0,0,0,0,0,0,0,0,0,0,0,0,0,0,0,0,0,0,0,0,0,0,0,0,0,0,0,0,0,0,0,0,0,0,0,0,0,0,0,0,0,0,0,0,0,0,0,0,0,0,0,0,0,0,0,0,0,0,0,0,0,0,0,0,0,0,0,0,0,0,0,0,
0,0,9302,9303,0,0,0,0,0,0,0,0,0,0,0,0,9305,9306,0,0,0,0,0,0,0,0,0,0,0,0,0,0,0,0,0,0,0,0,0,0,0,0,0,0,0,0,0,0,0,0,0,0,0,0,0,0,0,0,0,0,0,0,0,0,0,0,0,0,0,0,0,0,0,0,0,0,0,0,0,0,
0,0,0,9353,9354,9354,9354,9354,9354,9404,9405,9354,9354,9354,9354,9354,9355,0,0,0,0,0,0,0,0,0,0,0,0,0,0,0,0,0,0,0,0,0,0,0,0,0,0,0,0,0,0,0,0,0,0,0,0,0,0,0,0,0,0,0,0,0,0,0,0,0,0,0,0,0,0,0,0,0,0,0,0,0,0,0,
0,0,0,0,0,0,0,0,0,9454,9455,0,0,0,0,0,0,0,0,0,0,0,0,0,0,0,0,0,0,0,0,0,0,0,0,0,0,0,0,0,0,0,0,0,0,0,0,0,0,0,0,0,0,0,0,0,0,0,0,0,0,0,0,0,0,0,0,0,0,0,0,0,0,0,0,0,0,0,0,0,
0,0,0,0,0,0,0,0,0,0,0,0,0,0,0,0,0,0,0,0,0,0,0,0,0,0,0,0,0,0,0,0,0,0,0,0,0,0,0,0,0,0,0,0,0,0,0,0,0,0,0,0,0,0,0,0,0,0,0,0,0,0,0,0,0,0,0,0,0,0,0,0,0,0,0,0,0,0,0,0,
0,0,0,0,0,0,0,0,0,0,0,0,0,0,0,0,0,0,0,0,0,0,0,0,0,0,0,0,0,0,0,0,0,0,0,0,0,0,0,0,0,0,0,0,0,0,0,0,0,0,0,0,0,0,0,0,0,0,0,0,0,0,0,0,0,0,0,0,0,0,0,0,0,0,0,0,0,0,0,0,
0,0,0,0,0,0,0,0,0,0,0,0,0,0,0,0,0,0,0,0,0,0,0,0,0,0,0,0,0,0,0,0,0,0,0,0,0,0,0,0,0,0,0,0,0,0,0,0,0,0,0,0,0,0,0,0,0,0,0,0,0,0,0,0,0,0,0,0,0,0,0,0,0,0,0,0,0,0,0,0,
0,0,0,0,0,0,0,0,0,0,0,0,0,0,0,0,0,0,0,0,0,0,0,0,0,0,0,0,0,0,0,0,0,0,0,0,0,0,0,0,0,0,0,0,0,0,0,0,0,0,0,0,0,0,0,0,0,0,0,0,0,0,0,0,0,0,0,0,0,0,0,0,0,0,0,0,0,0,0,0,
0,0,0,0,0,0,0,0,0,0,0,0,0,0,0,0,0,0,0,0,0,0,0,0,0,0,0,0,0,0,0,0,0,0,0,0,0,0,0,0,0,0,0,0,0,0,0,0,0,0,0,0,0,0,0,0,0,0,0,0,0,0,0,0,0,0,0,0,0,0,0,0,0,0,0,0,0,0,0,0,
0,0,0,0,0,0,0,0,0,0,0,0,0,0,0,0,0,0,0,0,0,0,0,0,0,0,0,0,0,0,0,0,0,0,0,0,0,0,0,0,0,0,0,0,0,0,0,0,0,0,0,0,0,0,0,0,0,0,0,0,0,0,0,0,0,0,0,0,0,0,0,0,0,0,0,0,0,0,0,0,
0,0,0,0,0,0,0,0,0,0,0,0,0,0,0,0,0,0,0,0,0,0,0,0,0,0,0,0,0,0,0,0,0,0,0,0,0,0,0,0,0,0,0,0,0,0,0,0,0,0,0,0,0,0,0,0,0,0,0,0,0,0,0,0,0,0,0,0,0,0,0,0,0,0,0,0,0,0,0,0,
0,0,0,0,0,0,0,0,0,0,0,0,0,0,0,0,0,0,0,0,0,0,0,0,0,0,0,0,0,0,0,0,0,0,0,0,0,0,0,0,0,0,0,0,0,0,0,0,0,0,0,0,0,0,0,0,0,0,0,0,0,0,0,0,0,0,0,0,0,0,0,0,0,0,0,0,0,0,0,0,
0,0,0,0,0,0,0,0,0,0,0,0,0,0,0,0,0,0,0,0,0,0,0,0,0,0,0,0,0,0,0,0,0,0,0,0,0,0,0,0,0,0,0,0,0,0,0,0,0,0,0,0,0,0,0,0,0,0,0,0,0,0,0,0,0,0,0,0,0,0,0,0,0,0,0,0,0,0,0,0
</data>
 </layer>
 <layer id="10" name="Capa de patrones 6" width="80" height="50">
  <data encoding="csv">
0,0,0,0,0,0,0,0,0,0,0,0,0,0,0,0,0,0,0,0,0,0,0,0,0,0,0,0,0,0,0,0,0,0,0,0,0,0,0,0,0,0,0,0,0,0,0,0,0,0,0,0,0,0,0,0,0,0,0,0,0,0,0,0,0,0,0,0,0,0,0,0,0,0,0,0,0,0,0,0,
0,0,0,0,0,0,0,0,0,0,0,0,0,0,0,0,0,0,0,0,0,0,0,0,0,0,0,0,0,0,0,0,0,0,0,0,0,0,0,0,0,0,0,0,0,0,0,0,0,0,0,0,0,0,0,0,0,0,0,0,0,0,0,0,0,0,0,0,0,0,0,0,0,0,0,0,0,0,0,0,
0,0,0,0,0,0,0,0,0,0,0,0,0,0,0,0,0,0,0,0,0,0,0,0,0,0,0,0,0,0,0,0,0,0,0,0,0,0,0,0,0,0,0,0,0,0,0,0,0,0,0,0,0,0,0,0,0,0,0,0,0,0,0,0,0,0,0,0,0,0,0,0,0,0,0,0,0,0,0,0,
0,0,0,0,0,0,0,0,0,0,0,0,0,0,0,0,0,0,0,0,0,0,0,0,0,0,0,0,0,0,0,0,0,0,0,0,0,0,0,0,0,0,0,0,0,0,0,0,0,0,0,0,0,0,0,0,0,0,0,0,0,0,0,0,0,0,0,0,0,0,0,0,0,0,0,0,0,0,0,0,
0,0,0,0,0,0,0,0,0,0,0,0,0,0,0,0,0,0,0,0,0,0,0,0,0,0,0,0,0,0,0,0,0,0,0,0,0,0,0,0,0,0,0,0,0,0,0,0,0,0,0,0,0,0,0,0,0,0,0,0,0,0,0,0,0,0,0,0,0,0,0,0,0,0,0,0,0,0,0,0,
0,0,0,0,0,0,0,0,0,0,0,0,0,0,0,0,0,0,0,0,0,0,0,0,0,0,0,0,0,0,0,0,0,0,0,0,0,0,0,0,0,0,0,0,0,0,0,0,0,0,0,0,0,0,0,0,0,0,0,0,0,0,0,654,0,0,0,0,0,10764,0,0,0,0,0,0,0,0,0,0,
0,0,0,0,0,0,0,0,0,0,0,0,0,0,0,0,0,0,0,0,0,0,0,0,0,0,0,0,0,0,0,0,0,0,0,0,0,0,0,0,0,0,0,0,0,0,0,0,0,0,0,0,0,0,0,0,0,0,0,0,0,0,0,654,10778,10764,0,0,10759,10789,10759,0,0,0,0,0,0,0,0,0,
0,0,0,0,0,0,0,0,0,0,0,0,0,0,0,0,0,0,0,0,0,0,0,0,0,0,0,0,0,0,0,0,0,0,0,0,0,0,0,0,0,0,0,0,0,0,0,0,0,0,0,0,0,0,0,0,0,0,0,0,0,0,0,654,0,10789,10788,0,10784,0,10784,0,10752,0,0,0,0,0,0,0,
0,0,0,0,0,0,0,0,0,0,0,0,0,0,0,0,0,0,0,0,0,0,0,0,0,0,0,0,0,0,0,0,0,0,0,0,0,0,0,0,0,0,0,0,0,0,0,0,0,0,0,0,0,0,0,0,0,0,0,0,0,0,0,0,0,0,0,10778,0,0,10788,0,10784,0,0,0,0,0,0,0,
0,0,0,0,0,0,0,0,0,0,0,0,0,0,0,0,0,0,0,0,0,0,0,0,0,0,0,0,0,0,0,0,0,0,0,0,0,0,0,0,0,0,0,0,0,0,0,0,0,0,0,0,0,0,0,0,0,0,0,0,0,0,0,0,6254,6180,6181,6257,0,0,10754,0,0,0,0,0,0,0,0,0,
0,0,0,0,0,0,0,0,0,0,0,0,0,0,0,0,0,0,0,0,0,0,0,0,0,0,0,0,0,0,0,0,0,0,0,0,0,0,0,0,0,0,0,0,0,0,0,0,0,0,0,0,0,0,0,0,0,0,0,0,0,0,0,0,0,6230,6231,0,0,0,0,0,0,0,0,0,0,0,0,0,
0,0,0,0,0,0,0,0,0,0,0,0,0,0,0,0,0,0,0,0,0,0,0,0,0,0,0,0,0,0,0,0,0,0,0,0,0,0,0,0,0,0,0,0,0,0,0,0,0,0,0,0,0,0,0,0,0,0,0,0,0,0,0,0,0,5354,5355,0,5412,5413,0,5412,5413,0,0,0,0,0,0,0,
0,0,0,0,0,0,0,0,0,0,0,0,0,0,0,0,0,0,0,0,0,0,0,0,0,0,0,0,0,0,0,0,0,0,0,0,0,0,0,0,0,0,0,0,0,0,0,0,0,0,0,0,0,0,0,0,0,0,0,0,0,0,0,0,0,5379,5380,0,5437,5438,0,5437,5438,0,0,0,0,0,0,0,
0,0,0,0,0,0,0,0,0,0,0,0,0,0,0,0,0,0,0,0,0,0,0,0,0,0,0,0,0,0,0,0,5402,5403,0,0,0,0,0,0,0,0,0,0,0,0,0,0,0,0,0,0,0,0,0,0,0,0,0,0,0,0,0,0,0,5404,5405,0,0,0,0,0,0,0,0,0,0,0,0,0,
0,0,0,0,0,0,0,0,0,0,0,0,0,0,0,0,0,0,0,0,0,0,0,0,0,0,0,0,0,0,0,0,5427,5428,0,0,0,0,0,0,0,0,0,0,0,0,0,0,0,0,0,0,0,0,0,0,0,0,0,0,0,0,0,0,0,0,0,0,0,0,0,0,0,0,0,0,0,0,0,0,
0,0,0,0,0,0,0,0,0,0,0,0,0,673,633,633,633,633,633,633,633,678,0,0,0,0,0,0,0,0,0,0,5452,5453,0,0,0,0,0,0,0,0,0,0,0,0,0,0,0,0,0,0,0,0,0,0,0,0,0,0,0,0,0,0,0,0,0,0,0,0,0,0,0,0,0,0,0,0,0,0,
0,0,0,0,0,0,0,0,0,0,0,0,0,674,675,675,675,675,675,675,676,677,0,0,0,0,0,0,0,0,0,0,5477,5478,6063,6064,0,0,0,0,0,0,0,0,0,0,0,6063,6064,0,0,0,0,0,0,0,0,0,0,0,0,0,0,0,0,0,0,0,0,0,0,0,0,0,0,0,0,0,0,0,
0,0,0,0,0,0,0,0,0,0,0,0,0,841,0,0,0,0,5429,0,5429,846,0,0,0,0,0,0,0,0,0,0,0,6087,6088,6089,6090,0,0,0,0,0,0,0,0,0,6087,6088,6089,6090,0,0,0,0,0,0,0,0,0,0,0,0,0,0,0,0,0,0,0,0,0,0,0,0,0,0,0,0,0,0,
0,0,0,0,0,0,0,0,0,0,0,0,0,883,884,5429,5429,887,927,928,1095,929,0,0,0,0,0,0,0,0,0,0,6111,6112,6113,6114,6115,6116,6211,0,0,0,0,0,6211,6111,6112,6113,6114,6115,6116,0,0,0,0,0,0,0,0,0,0,0,0,0,0,0,0,0,0,0,0,0,0,0,0,0,0,0,0,0,
0,0,0,0,0,0,0,0,0,0,0,0,0,925,926,927,928,929,969,970,1137,971,0,0,0,0,0,0,0,0,0,0,6136,6137,6138,6139,6140,6141,6236,0,0,0,0,0,6236,6136,6137,6138,6139,6140,6141,0,0,0,0,0,0,0,0,0,0,0,0,0,0,0,0,0,0,0,0,0,0,0,0,0,0,0,0,0,
0,0,0,0,0,0,0,0,0,0,0,0,0,967,968,969,970,971,1011,1012,1179,1013,0,0,0,0,0,0,0,0,0,0,6161,6162,6163,6164,6165,6166,6261,0,0,0,0,0,6261,6161,6162,6163,6164,6165,6166,0,0,0,0,0,0,0,0,0,0,0,0,0,0,0,0,0,0,0,0,0,0,0,0,0,0,0,0,0,
0,0,0,0,0,0,0,0,0,0,0,0,0,1009,1010,1011,1012,1013,1053,1054,1221,1055,0,0,0,0,0,0,0,0,0,0,6186,0,0,0,0,6191,6286,0,0,0,0,0,6286,6186,0,0,0,0,6191,0,0,0,0,0,0,0,0,0,0,0,0,0,0,0,0,0,0,0,0,0,0,0,0,0,0,0,0,0,
0,0,0,0,0,0,0,0,0,0,0,0,5553,5554,1052,1053,1054,1055,0,0,0,0,0,0,0,0,0,0,0,0,0,0,0,0,0,0,0,0,6187,6188,6189,6187,6188,6189,6190,0,0,0,0,0,0,0,0,0,0,0,0,0,0,0,0,0,0,0,0,0,0,0,0,0,0,0,0,0,0,0,0,0,0,0,
0,0,0,0,0,0,0,0,0,0,0,0,0,0,0,0,0,0,0,0,0,0,0,0,0,0,0,0,0,0,0,0,0,0,0,0,0,0,6212,6213,6214,6212,6213,6214,6215,0,0,0,0,0,0,0,0,0,0,0,0,0,0,0,0,0,0,0,0,0,0,0,0,0,0,0,0,0,0,0,0,0,0,0,
0,0,0,0,0,0,0,0,0,0,0,0,0,0,0,0,0,0,0,0,0,0,0,0,0,0,0,0,0,0,0,0,0,0,5454,5455,0,0,6237,6238,6239,6237,6238,6239,6240,0,0,5454,5455,0,0,0,0,0,0,0,0,0,0,0,0,0,0,0,0,0,0,0,0,0,0,0,0,0,0,0,0,0,0,0,
0,0,0,0,0,0,0,0,0,0,0,0,0,0,0,0,0,0,0,0,0,0,0,0,0,0,0,0,0,0,0,0,0,0,5479,5480,0,0,0,0,5362,5363,0,0,0,0,0,5479,5480,0,0,0,0,0,0,0,0,0,0,0,0,0,0,0,0,0,0,0,0,0,0,0,0,0,0,0,0,0,0,0,
0,0,0,0,0,0,0,0,0,0,0,0,0,0,0,0,0,0,0,0,0,0,0,0,0,0,0,0,0,0,0,0,0,0,0,0,0,0,0,0,5387,5388,0,0,0,0,0,0,0,0,0,0,0,0,0,0,0,0,0,0,0,0,0,0,0,0,0,0,0,0,0,0,0,0,0,0,0,0,0,0,
0,0,0,0,0,0,0,0,0,0,0,0,0,0,0,0,0,0,0,0,0,0,0,0,0,0,0,0,0,0,0,0,0,0,0,0,0,0,0,0,0,0,0,0,0,0,0,0,0,0,0,0,0,0,0,0,0,0,0,0,0,0,0,0,0,0,0,0,0,0,0,0,0,0,0,0,0,0,0,0,
0,0,0,0,0,0,0,0,0,0,0,0,0,0,0,0,0,0,0,0,0,0,0,0,0,0,0,0,0,0,0,0,0,0,0,0,0,0,0,0,0,0,0,0,0,0,0,0,0,0,0,0,0,0,0,0,0,0,0,0,0,0,0,0,0,0,0,0,0,0,0,0,0,0,0,0,0,0,0,0,
0,0,0,0,0,0,0,0,0,0,0,0,0,0,0,0,0,0,0,0,0,0,0,0,0,0,0,0,0,0,0,0,0,0,0,0,0,0,0,0,0,0,0,0,0,0,0,0,0,0,0,0,0,0,0,0,0,0,0,0,0,0,0,0,0,0,0,0,0,0,0,0,0,0,0,0,0,0,0,0,
0,0,0,0,0,0,0,0,0,0,0,0,0,0,0,0,0,0,0,0,0,0,0,0,0,0,0,0,0,0,0,0,0,0,0,0,0,0,0,0,0,0,0,0,0,0,0,0,0,0,0,0,0,0,0,0,0,0,0,0,0,0,0,0,0,0,0,0,0,0,0,0,0,0,0,0,0,0,0,0,
0,0,0,0,0,0,0,0,0,0,0,0,0,0,0,0,0,0,0,0,0,0,0,0,0,0,0,0,0,0,0,0,0,0,0,0,0,0,0,0,0,0,0,0,0,0,0,0,0,0,0,0,0,0,0,0,0,0,0,0,0,0,0,0,0,0,0,0,0,0,0,0,0,0,0,0,0,0,0,0,
0,0,0,0,0,0,0,0,0,0,0,0,0,0,0,0,0,0,0,0,0,0,0,0,0,0,0,0,0,0,0,0,0,0,0,0,0,0,0,0,0,0,0,0,0,0,0,0,0,0,0,0,0,0,0,0,0,0,0,0,0,0,0,0,0,0,0,0,0,0,0,0,0,0,0,0,0,0,0,0,
0,0,0,0,0,0,0,0,0,0,0,0,0,0,0,0,0,0,0,0,0,0,0,0,0,0,0,0,0,0,0,0,0,0,0,0,0,0,0,0,0,0,0,0,0,0,0,0,0,0,0,0,0,0,0,0,0,0,0,0,0,0,0,0,0,0,0,0,0,0,0,0,0,0,0,0,0,0,0,0,
0,0,0,0,0,0,0,0,0,0,0,0,0,0,0,0,0,0,0,0,0,0,0,0,0,0,0,0,0,0,0,0,0,0,0,0,0,0,0,0,0,0,0,0,0,0,0,0,0,0,0,0,0,0,0,0,0,0,0,0,0,0,0,0,0,0,0,0,0,0,0,0,0,0,0,0,0,0,0,0,
0,0,0,0,0,0,0,0,0,0,0,0,0,0,0,0,0,0,0,0,0,0,0,0,0,0,0,0,0,0,0,0,0,0,0,0,0,0,0,0,0,0,0,0,0,0,0,0,0,0,0,0,0,0,0,0,0,0,0,0,0,0,0,0,0,0,0,0,0,0,0,0,0,0,0,0,0,0,0,0,
0,0,0,0,0,0,0,0,0,0,0,0,0,0,0,0,0,0,0,0,0,0,0,0,0,0,0,0,0,0,0,0,0,0,0,0,0,0,0,0,0,0,0,0,0,0,0,0,0,0,0,0,0,0,0,0,0,0,0,0,0,0,0,0,0,0,0,0,0,0,0,0,0,0,0,0,0,0,0,0,
0,0,0,0,0,0,0,0,0,0,0,0,0,0,0,0,0,0,0,0,0,0,0,0,0,0,0,0,0,0,0,0,0,0,0,0,0,0,0,0,0,0,0,0,0,0,0,0,0,0,0,0,0,0,0,0,0,0,0,0,0,0,0,0,0,0,0,0,0,0,0,0,0,0,0,0,0,0,0,0,
0,0,0,0,0,0,0,0,0,0,0,0,0,0,0,0,0,0,0,0,0,0,0,0,0,0,0,0,0,0,0,0,0,0,0,0,0,0,0,0,0,0,0,0,0,0,0,0,0,0,0,0,0,0,0,0,0,0,0,0,0,0,0,0,0,0,0,0,0,0,0,0,0,0,0,0,0,0,0,0,
0,0,0,0,0,0,0,0,0,0,0,0,0,0,0,0,0,0,0,0,0,0,0,0,0,0,0,0,0,0,0,0,0,0,0,0,0,0,0,0,0,0,0,0,0,0,0,0,0,0,0,0,0,0,0,0,0,0,0,0,0,0,0,0,0,0,0,0,0,0,0,0,0,0,0,0,0,0,0,0,
0,0,0,0,0,0,0,0,0,0,0,0,0,0,0,0,0,0,0,0,0,0,0,0,0,0,0,0,0,0,0,0,0,0,0,0,0,0,0,0,0,0,0,0,0,0,0,0,0,0,0,0,0,0,0,0,0,0,0,0,0,0,0,0,0,0,0,0,0,0,0,0,0,0,0,0,0,0,0,0,
0,0,0,0,0,0,0,0,0,0,0,0,0,0,0,0,0,0,0,0,0,0,0,0,0,0,0,0,0,0,0,0,0,0,0,0,0,0,0,0,0,0,0,0,0,0,0,0,0,0,0,0,0,0,0,0,0,0,0,0,0,0,0,0,0,0,0,0,0,0,0,0,0,0,0,0,0,0,0,0,
0,0,0,0,0,0,0,0,0,0,0,0,0,0,0,0,0,0,0,0,0,0,0,0,0,0,0,0,0,0,0,0,0,0,0,0,0,0,0,0,0,0,0,0,0,0,0,0,0,0,0,0,0,0,0,0,0,0,0,0,0,0,0,0,0,0,0,0,0,0,0,0,0,0,0,0,0,0,0,0,
0,0,0,0,0,0,0,0,0,0,0,0,0,0,0,0,0,0,0,0,0,0,0,0,0,0,0,0,0,0,0,0,0,0,0,0,0,0,0,0,0,0,0,0,0,0,0,0,0,0,0,0,0,0,0,0,0,0,0,0,0,0,0,0,0,0,0,0,0,0,0,0,0,0,0,0,0,0,0,0,
0,0,0,0,0,0,0,0,0,0,0,0,0,0,0,0,0,0,0,0,0,0,0,0,0,0,0,0,0,0,0,0,0,0,0,0,0,0,0,0,0,0,0,0,0,0,0,0,0,0,0,0,0,0,0,0,0,0,0,0,0,0,0,0,0,0,0,0,0,0,0,0,0,0,0,0,0,0,0,0,
0,0,0,0,0,0,0,0,0,0,0,0,0,0,0,0,0,0,0,0,0,0,0,0,0,0,0,0,0,0,0,0,0,0,0,0,0,0,0,0,0,0,0,0,0,0,0,0,0,0,0,0,0,0,0,0,0,0,0,0,0,0,0,0,0,0,0,0,0,0,0,0,0,0,0,0,0,0,0,0,
0,0,0,0,0,0,0,0,0,0,0,0,0,0,0,0,0,0,0,0,0,0,0,0,0,0,0,0,0,0,0,0,0,0,0,0,0,0,0,0,0,0,0,0,0,0,0,0,0,0,0,0,0,0,0,0,0,0,0,0,0,0,0,0,0,0,0,0,0,0,0,0,0,0,0,0,0,0,0,0,
0,0,0,0,0,0,0,0,0,0,0,0,0,0,0,0,0,0,0,0,0,0,0,0,0,0,0,0,0,0,0,0,0,0,0,0,0,0,0,0,0,0,0,0,0,0,0,0,0,0,0,0,0,0,0,0,0,0,0,0,0,0,0,0,0,0,0,0,0,0,0,0,0,0,0,0,0,0,0,0,
0,0,0,0,0,0,0,0,0,0,0,0,0,0,0,0,0,0,0,0,0,0,0,0,0,0,0,0,0,0,0,0,0,0,0,0,0,0,0,0,0,0,0,0,0,0,0,0,0,0,0,0,0,0,0,0,0,0,0,0,0,0,0,0,0,0,0,0,0,0,0,0,0,0,0,0,0,0,0,0,
0,0,0,0,0,0,0,0,0,0,0,0,0,0,0,0,0,0,0,0,0,0,0,0,0,0,0,0,0,0,0,0,0,0,0,0,0,0,0,0,0,0,0,0,0,0,0,0,0,0,0,0,0,0,0,0,0,0,0,0,0,0,0,0,0,0,0,0,0,0,0,0,0,0,0,0,0,0,0,0
</data>
 </layer>
 <layer id="11" name="Capa de patrones 7" width="80" height="50">
  <data encoding="csv">
0,0,0,0,0,0,0,0,0,0,0,0,0,0,0,0,0,0,0,0,0,0,0,0,0,0,0,0,0,0,0,0,0,0,0,0,0,0,0,0,0,0,0,0,0,0,0,0,0,0,0,0,0,0,0,0,0,0,0,0,0,0,0,0,0,0,0,0,0,0,0,0,0,0,0,0,0,0,0,0,
0,0,0,0,0,0,0,0,0,0,0,0,0,0,0,0,0,0,0,0,0,0,0,0,0,0,0,0,0,0,0,0,0,0,0,0,0,0,0,0,0,0,0,0,0,0,0,0,0,0,0,0,0,0,0,0,0,0,0,0,0,0,0,0,0,0,0,0,0,0,0,0,0,0,0,0,0,0,0,0,
0,0,0,0,0,0,0,0,0,0,0,0,0,0,0,0,0,0,0,0,0,0,0,0,0,0,0,0,0,0,0,0,0,0,0,0,0,0,0,0,0,0,0,0,0,0,0,0,0,0,0,0,0,0,0,0,0,0,6634,6635,6636,6637,6638,0,0,0,0,0,0,0,0,0,0,0,0,0,0,0,0,0,
0,0,0,0,0,0,0,0,0,0,0,0,0,0,0,0,0,0,0,0,0,0,0,0,0,0,0,0,0,0,0,0,0,0,0,0,0,0,0,0,0,0,0,0,0,0,0,0,0,0,0,0,0,0,0,0,0,0,6659,6660,6661,6662,6663,0,0,0,0,0,0,0,0,0,0,0,0,0,0,0,0,0,
0,0,0,0,0,0,0,0,0,0,0,0,0,0,0,0,0,0,0,0,0,0,0,0,0,0,0,0,0,0,0,0,0,0,0,0,0,0,0,0,0,0,0,0,0,0,0,0,0,0,0,0,0,0,0,0,0,0,0,0,0,0,0,0,0,0,0,0,0,0,0,0,0,0,0,0,0,0,0,0,
0,0,0,0,0,0,0,0,0,0,0,0,0,0,0,0,0,0,0,0,0,0,0,0,0,0,0,0,0,0,0,0,0,0,0,0,0,0,0,0,0,0,0,0,0,0,0,0,0,0,0,0,0,0,0,0,0,0,0,0,0,0,654,654,0,0,0,0,0,0,0,0,0,0,0,0,0,0,0,0,
0,0,0,0,0,0,0,0,0,0,0,0,0,0,0,0,0,0,0,0,0,0,0,0,0,0,0,0,0,0,0,0,0,0,0,0,0,0,0,0,0,0,0,0,0,0,0,0,0,0,0,0,0,0,0,0,0,0,0,0,0,0,0,654,0,0,0,0,0,0,0,0,0,0,0,0,0,0,0,0,
0,0,0,0,0,0,0,0,0,0,0,0,0,0,0,0,0,0,0,0,0,0,0,0,0,0,0,0,0,0,0,0,0,0,0,0,0,0,0,0,0,0,0,0,0,0,0,0,0,0,0,0,0,0,0,0,0,0,0,0,0,0,0,654,0,0,0,9313,0,0,0,6634,6635,6636,6637,6638,0,0,0,0,
0,0,0,0,0,0,0,0,0,0,6684,6685,6686,0,0,0,0,0,0,0,0,0,0,0,0,0,0,0,0,0,0,0,0,0,0,0,0,0,0,0,0,0,0,0,0,0,0,0,0,0,0,0,0,0,0,0,0,0,0,0,0,0,0,0,0,0,0,0,0,9055,9056,6659,6660,6661,6662,6663,0,0,0,0,
0,0,0,0,0,0,0,0,0,0,0,0,0,0,0,0,0,0,0,0,0,0,0,0,0,0,0,0,0,0,0,0,0,0,0,0,0,0,0,0,0,0,0,0,0,0,0,0,0,0,0,0,0,0,0,0,0,0,0,0,0,0,0,0,0,0,0,0,0,9105,9106,0,0,0,0,0,0,0,0,0,
0,0,0,0,0,0,0,0,0,0,0,0,0,0,0,0,0,0,0,0,0,0,0,0,0,0,0,0,0,0,0,0,0,0,0,0,0,0,0,0,0,0,0,0,0,0,0,0,0,0,0,0,0,0,0,0,0,0,0,0,0,0,0,0,0,0,0,0,0,0,0,0,0,0,0,0,0,0,0,0,
0,0,0,0,0,0,0,0,0,0,0,0,0,0,0,0,0,0,0,0,0,0,0,0,0,0,0,0,0,0,0,0,0,0,0,0,0,0,0,0,0,0,0,0,0,0,0,0,0,0,0,0,0,0,0,0,0,0,0,0,0,0,0,0,0,7208,7208,0,0,0,0,0,0,0,0,0,0,0,0,0,
0,0,0,0,0,0,0,0,0,0,0,0,0,0,0,0,0,0,0,0,0,0,0,0,0,0,0,0,0,0,0,0,0,0,0,0,0,0,0,0,0,0,0,0,0,0,0,0,0,0,0,0,0,0,0,0,0,0,0,0,0,9003,9004,0,0,0,0,0,0,0,0,0,0,0,0,0,0,0,0,0,
0,0,0,0,0,0,0,0,0,0,0,0,0,0,0,0,0,0,5930,5931,0,0,0,0,0,0,0,0,0,0,0,0,0,0,0,0,0,0,0,0,0,0,0,0,0,0,0,0,0,0,0,0,0,0,0,0,0,0,0,0,0,0,0,0,0,0,0,9313,0,0,0,0,0,0,0,0,0,0,0,0,
0,0,0,0,0,6559,6560,6561,6562,6563,6564,6565,0,1057,1057,5952,5953,5954,5955,5956,5957,5958,5959,0,0,0,6684,6685,6686,0,0,0,0,0,0,0,0,0,0,0,0,0,0,0,0,0,0,0,0,0,0,0,0,0,0,0,0,0,0,0,0,0,0,0,0,0,0,0,0,0,0,0,0,0,0,0,0,0,0,0,
0,0,0,0,0,6584,6585,6586,6587,6588,6589,6590,0,6179,6180,6181,5978,5979,5980,5981,5982,5983,5984,0,0,0,0,0,0,0,0,0,0,0,0,0,0,0,0,0,0,0,0,0,0,0,0,0,0,0,0,0,6559,6560,6561,6562,6563,6564,6565,0,0,0,0,0,0,0,0,0,0,0,0,0,0,0,0,0,0,0,0,0,
0,0,0,0,0,6609,6610,6611,6612,6613,6614,6615,0,6204,6205,6206,6003,6004,6005,6006,6007,6008,6009,0,0,0,0,0,0,0,0,0,0,0,0,0,0,0,0,0,0,0,0,0,0,0,0,0,0,0,0,0,6584,6585,6586,6587,6588,6589,6590,0,0,0,0,0,0,0,0,0,0,0,0,0,0,0,0,0,0,0,0,0,
0,0,0,0,0,0,0,0,0,0,0,0,0,6204,6205,6206,6028,6029,6030,6031,6032,6033,6034,0,0,0,0,0,0,0,0,0,0,0,0,0,0,0,0,0,0,0,0,0,0,0,0,0,0,0,0,0,6609,6610,6611,6612,6613,6614,6615,0,0,0,0,0,0,0,0,0,0,0,0,0,0,0,0,0,0,0,0,0,
0,0,0,0,0,0,0,0,0,0,0,0,0,0,0,7229,7230,0,0,0,0,6058,6059,0,0,0,0,0,0,0,0,0,0,0,0,0,0,0,0,0,0,0,0,0,0,0,0,0,0,0,0,0,0,0,0,0,0,0,0,0,0,0,0,0,0,0,0,0,0,0,0,0,0,0,0,0,0,0,0,0,
0,0,0,0,0,0,0,0,0,0,0,0,0,0,7207,7207,7208,7209,7210,5410,5411,0,0,0,0,0,0,0,0,0,0,0,0,0,0,0,0,0,0,0,0,0,0,0,0,0,0,0,0,0,0,0,0,0,0,0,0,0,0,0,0,0,0,0,0,0,0,0,0,0,0,0,0,0,0,0,0,0,0,0,
0,0,0,0,0,0,0,0,0,0,0,0,0,0,0,0,0,0,0,5435,5436,0,0,0,0,0,0,0,0,0,0,0,0,0,0,0,0,0,0,0,0,0,0,0,0,0,0,0,0,0,0,0,0,0,0,0,0,0,0,0,0,0,0,0,0,0,0,0,0,0,0,0,0,0,0,0,0,0,0,0,
0,0,0,0,0,0,0,0,0,0,0,0,0,0,0,0,0,0,0,5530,5531,0,0,0,0,0,0,0,0,0,0,0,0,0,0,0,0,0,0,0,0,0,0,0,0,0,0,0,0,0,0,0,0,0,0,0,6634,6635,6636,6637,6638,0,0,0,0,0,0,0,0,0,0,0,0,0,0,0,0,0,0,0,
0,0,0,0,0,0,0,0,0,0,0,0,0,0,0,0,0,0,0,5555,5556,0,0,0,0,0,0,0,0,0,0,0,0,0,0,0,0,0,0,0,0,0,0,0,0,0,0,0,0,0,0,0,0,0,0,0,6659,6660,6661,6662,6663,0,0,0,0,0,0,0,0,0,0,0,0,0,0,0,0,0,0,0,
0,0,0,0,0,0,0,0,0,0,0,0,0,0,0,0,0,0,0,0,0,0,0,0,0,0,0,0,0,0,0,0,0,0,0,0,0,0,0,0,0,0,0,0,0,0,0,0,0,0,0,0,0,0,0,0,0,0,0,0,0,0,0,0,0,0,0,0,0,0,0,0,0,0,0,0,0,0,0,0,
0,0,0,0,0,0,0,0,0,0,0,0,0,0,0,0,0,0,0,0,0,0,0,0,0,0,0,0,0,6684,6685,6686,0,0,0,0,0,0,0,0,0,0,0,0,0,0,0,0,0,0,0,0,0,0,0,0,0,0,0,0,0,0,0,0,0,0,0,0,0,0,0,0,0,0,0,0,0,0,0,0,
0,0,0,0,0,0,0,0,0,0,0,0,0,0,0,0,0,0,0,0,0,0,0,0,0,0,0,0,0,0,0,0,0,0,0,0,0,0,0,0,0,0,0,0,0,0,0,0,0,0,0,0,0,0,0,0,0,0,0,0,0,0,0,0,0,0,6559,6560,6561,6562,6563,6564,6565,0,0,0,0,0,0,0,
0,0,0,0,0,0,0,0,0,0,0,0,0,0,0,0,0,0,0,0,0,0,0,0,0,0,0,0,0,0,0,0,0,0,0,0,0,0,0,0,0,0,0,0,0,0,0,0,0,0,0,0,0,0,0,0,0,0,0,0,0,0,0,0,0,0,6584,6585,6586,6587,6588,6589,6590,0,0,0,0,0,0,0,
0,0,0,0,0,0,0,0,0,0,0,0,0,0,0,0,0,0,0,0,0,0,0,0,0,0,0,0,0,0,0,0,0,0,0,0,0,0,0,0,0,0,0,0,0,0,0,0,0,0,0,0,0,0,0,0,0,0,0,0,0,0,0,0,0,0,6609,6610,6611,6612,6613,6614,6615,0,0,0,0,0,0,0,
0,0,0,0,0,0,0,0,0,0,0,0,0,0,0,0,0,0,0,0,0,0,0,0,0,0,0,0,0,0,0,0,0,0,0,0,0,0,0,0,0,0,0,0,0,0,0,0,0,0,0,0,0,0,0,0,0,0,0,0,0,0,0,0,0,0,0,0,0,0,0,0,0,0,0,0,0,0,0,0,
0,0,0,0,0,0,0,0,0,0,0,0,0,0,0,0,0,0,0,0,0,0,0,0,0,0,0,0,0,0,0,0,0,0,0,0,0,0,0,0,0,0,0,0,0,0,0,0,0,0,0,0,0,0,0,0,0,0,0,0,0,0,0,0,0,0,0,0,0,0,0,0,0,0,0,0,0,0,0,0,
0,0,0,0,0,0,0,0,0,0,0,0,0,0,0,0,0,0,0,0,0,0,0,0,0,0,0,0,0,0,0,0,0,0,0,0,0,0,0,0,0,0,0,0,0,0,0,0,0,0,0,0,0,0,0,0,0,0,0,0,0,0,0,0,0,0,0,0,0,0,0,0,0,0,0,0,0,0,0,0,
0,0,0,0,0,0,0,0,0,0,0,0,0,0,0,0,0,0,0,0,0,0,0,0,0,0,0,0,0,0,0,0,0,0,0,0,0,0,0,0,0,6634,6635,6636,6637,6638,0,0,0,0,0,0,6559,6560,6561,6562,6563,6564,6565,0,0,0,0,0,0,0,0,0,0,0,0,0,0,0,0,0,0,0,0,0,
0,0,0,0,0,0,0,0,0,0,0,0,0,0,0,0,0,0,0,0,0,0,6559,6560,6561,6562,6563,6564,6565,0,0,0,0,0,0,0,0,0,0,0,0,6659,6660,6661,6662,6663,0,0,0,0,0,0,6584,6585,6586,6587,6588,6589,6590,0,0,0,0,0,0,0,0,0,0,0,0,0,0,0,0,0,0,0,0,0,
0,0,0,0,0,0,0,0,0,0,0,0,0,0,0,0,0,0,0,0,0,0,6584,6585,6586,6587,6588,6589,6590,0,0,0,0,0,0,0,0,0,0,0,0,0,0,0,0,0,0,0,0,0,0,0,6609,6610,6611,6612,6613,6614,6615,0,0,0,0,0,0,0,0,0,0,0,0,0,0,0,0,0,0,0,0,0,
0,0,0,0,0,0,0,0,0,0,0,0,0,0,0,0,0,0,0,0,0,0,6609,6610,6611,6612,6613,6614,6615,0,0,0,0,0,0,0,0,0,0,0,0,0,0,0,0,0,0,0,0,0,0,0,0,0,0,0,0,0,0,0,0,0,0,6634,6635,6636,6637,6638,0,0,0,0,0,0,0,0,0,0,0,0,
0,0,0,0,0,0,0,0,0,0,0,0,0,0,0,0,0,0,0,0,0,0,0,0,0,0,0,0,0,0,0,0,0,0,0,0,0,0,0,0,0,0,0,0,0,0,0,0,0,0,0,0,0,0,0,0,0,0,0,0,0,0,0,6659,6660,6661,6662,6663,0,0,0,0,0,0,0,0,0,0,0,0,
0,0,0,0,0,0,0,0,0,0,0,0,0,0,0,0,0,0,0,0,0,0,0,0,0,0,0,0,0,0,0,0,0,0,0,0,0,0,0,0,0,0,0,0,0,0,0,0,0,0,0,0,0,6559,6560,6561,6562,6563,6564,6565,0,0,0,0,0,0,0,0,0,0,0,0,0,0,0,6634,6635,6636,6637,6638,
0,0,0,0,0,0,0,0,0,0,0,0,0,0,0,0,0,0,0,0,0,0,0,0,0,0,0,0,0,0,0,0,0,0,0,0,0,0,0,0,0,0,0,0,0,0,0,0,0,0,0,0,0,6584,6585,6586,6587,6588,6589,6590,0,0,0,0,0,0,0,0,0,0,0,0,0,0,0,6659,6660,6661,6662,6663,
0,0,0,0,0,0,0,0,0,0,0,0,0,0,0,0,0,0,0,0,0,0,0,0,0,0,0,0,0,0,0,0,0,0,0,0,0,0,0,0,0,0,0,0,0,0,0,0,0,0,0,0,0,6609,6610,6611,6612,6613,6614,6615,0,0,0,0,0,0,0,0,0,0,0,0,0,0,0,0,0,0,0,0,
0,0,0,0,0,0,0,0,0,0,0,0,0,0,0,0,0,0,0,0,0,0,0,0,0,0,0,0,0,0,0,0,0,0,0,0,0,0,0,0,0,0,0,0,0,0,0,0,0,0,0,0,0,0,0,0,0,0,0,0,0,0,0,0,0,0,0,0,0,0,0,0,0,0,0,0,0,0,0,0,
0,0,0,0,0,0,0,0,0,0,0,0,0,0,0,0,0,0,0,0,0,0,0,0,0,0,0,0,6559,6560,6559,6559,6560,6561,6562,6563,6564,6565,0,0,0,0,0,0,0,0,0,0,0,0,0,0,0,0,6684,6685,6686,0,0,0,0,0,0,6559,6560,6561,6562,6563,6564,6565,0,0,0,0,0,0,0,0,0,0,
0,0,0,0,6559,6559,6560,6561,6562,6563,6564,6565,0,0,0,0,0,0,0,0,0,0,0,0,0,0,0,0,6559,6559,6584,6584,6585,6586,6587,6588,6589,6590,6565,6565,0,0,0,0,0,0,0,0,0,0,0,0,0,0,0,0,0,0,0,0,0,0,0,6584,6585,6586,6587,6588,6589,6590,0,0,0,0,0,0,0,0,0,0,
0,0,0,0,6584,6584,6585,6586,6587,6588,6589,6590,0,0,0,0,0,0,0,0,0,0,0,0,0,0,0,0,6584,6584,6609,6609,6610,6611,6612,6613,6614,6615,6590,6590,0,0,0,0,0,0,0,0,0,0,0,0,0,0,0,0,0,0,0,0,0,0,0,6609,6610,6611,6612,6613,6614,6615,0,0,0,0,0,0,0,0,0,0,
0,0,0,0,6609,6609,6610,6611,6612,6613,6614,6615,0,0,0,0,0,0,6634,6635,6636,6637,6638,0,0,0,0,0,6609,6609,6609,6609,6610,6611,6612,6613,6614,6615,6615,6615,0,0,0,0,0,0,0,0,0,0,0,0,0,0,0,0,0,0,0,0,0,0,0,0,0,0,0,0,0,0,0,0,0,0,0,0,0,0,0,0,
0,0,0,0,0,0,0,0,0,0,0,0,0,0,0,0,0,0,6659,6660,6661,6662,6663,0,0,0,0,0,0,0,0,0,0,0,0,0,0,0,0,0,0,0,0,0,0,0,0,0,0,0,0,0,0,0,0,0,0,0,0,0,0,0,0,0,0,0,0,0,0,0,0,0,0,0,6559,6560,6561,6562,6563,6564,
0,0,0,0,0,0,0,0,0,0,0,0,0,0,0,0,0,0,0,0,0,0,0,0,0,0,0,0,0,0,0,0,0,0,0,0,0,0,0,0,0,0,0,0,0,0,0,0,0,6634,6635,6636,6637,6638,0,0,0,0,0,0,0,0,0,0,0,0,0,0,0,0,0,0,0,0,6584,6585,6586,6587,6588,6589,
0,0,0,0,0,0,0,0,0,0,0,0,0,0,0,0,0,0,0,0,0,0,0,0,0,0,0,0,0,6634,6635,6636,6637,6638,0,0,0,0,0,0,0,0,0,0,0,0,0,0,0,6659,6660,6661,6662,6663,0,0,0,0,0,0,0,0,0,0,0,0,0,0,0,0,0,0,0,0,6609,6610,6611,6612,6613,6614,
0,0,0,0,0,0,0,0,0,0,0,0,0,0,0,0,0,0,0,0,0,0,0,0,0,0,0,0,0,6659,6660,6661,6662,6663,0,0,0,0,0,0,0,0,0,0,0,0,0,0,0,0,0,0,0,0,0,0,0,0,0,0,0,0,0,0,0,0,0,0,0,0,0,0,0,0,0,0,0,0,0,0,
0,0,0,0,0,0,0,0,0,0,0,0,0,0,0,0,0,0,0,0,0,0,0,0,0,0,0,0,0,0,0,0,0,0,0,0,0,0,0,0,0,0,0,0,0,0,0,0,0,0,0,0,0,0,0,0,0,0,0,0,0,0,0,0,0,0,0,0,0,0,0,0,0,0,0,0,0,0,0,0,
0,0,0,0,0,0,0,0,0,0,0,0,0,0,0,0,0,0,0,0,0,0,0,0,0,0,0,0,0,0,0,0,0,0,0,0,0,0,0,0,0,0,0,0,0,0,0,0,0,0,0,0,0,0,0,0,0,0,0,0,0,0,0,0,0,0,0,0,0,0,0,0,0,0,0,0,0,0,0,0
</data>
 </layer>
 <layer id="12" name="Capa de patrones 8" width="80" height="50">
  <data encoding="csv">
0,0,0,0,0,0,0,0,0,0,0,0,0,0,0,0,0,0,0,0,0,0,0,0,0,0,0,0,0,0,0,0,0,0,0,0,0,0,0,0,0,0,0,0,0,0,0,0,0,0,0,0,0,0,0,0,0,0,0,0,0,0,0,0,0,0,0,0,0,0,0,0,0,0,0,0,0,0,0,0,
0,0,0,0,0,0,0,0,0,0,0,0,0,0,0,0,0,0,0,0,0,0,0,0,0,0,0,0,0,0,0,0,0,0,0,0,0,0,0,0,0,0,0,0,0,0,0,0,0,0,0,0,0,0,0,0,0,6684,6685,6686,0,0,0,0,0,0,0,0,0,0,0,0,0,0,0,0,0,0,0,0,
0,0,0,0,0,0,0,0,0,0,0,0,0,0,0,0,0,0,0,0,0,0,0,0,0,0,0,0,0,0,0,0,0,0,0,0,0,0,0,0,0,0,0,0,0,0,0,0,0,0,0,6684,6685,6686,0,0,0,0,0,0,0,0,0,0,0,0,0,0,0,0,0,0,0,0,0,0,0,0,0,0,
0,0,0,0,0,0,0,0,0,0,0,0,0,0,0,0,0,0,0,0,0,6684,6685,6686,6686,0,0,0,0,0,0,0,0,0,0,0,0,0,0,0,0,0,0,0,0,0,0,0,0,0,0,0,0,0,0,0,0,0,0,0,6684,6685,6686,0,0,0,0,0,0,0,0,0,0,0,0,0,0,0,0,0,
0,0,0,0,0,0,0,0,0,0,0,0,0,0,0,0,0,0,0,0,0,0,0,0,0,0,0,0,0,0,0,0,6634,6635,6636,6637,6638,0,6559,6560,6561,6562,6563,6564,6565,0,0,6684,6685,6686,0,0,0,0,0,0,0,6634,0,0,0,0,0,654,0,0,0,0,0,0,0,0,0,0,0,0,0,0,0,0,
0,0,0,0,0,0,0,0,0,0,0,0,0,0,0,0,0,0,0,0,0,0,0,0,0,0,0,0,0,6684,6685,6686,6659,6660,6661,6662,6663,0,6584,6585,6586,6587,6588,6589,6590,0,0,0,0,0,0,0,6634,0,0,0,0,0,0,0,0,0,0,654,0,0,0,0,0,0,0,0,0,0,0,0,0,0,0,0,
0,0,0,0,0,0,0,0,0,0,0,0,0,0,0,0,0,0,0,0,0,0,0,0,0,0,0,0,0,0,0,0,0,0,0,0,0,0,6609,6610,6611,6612,6613,6614,6615,6636,6637,6638,0,0,0,0,0,0,6634,0,6634,0,0,0,0,0,0,2983,0,0,0,0,0,0,0,0,0,0,0,0,0,0,0,0,
0,0,0,0,0,0,0,0,0,0,0,0,0,0,0,0,0,0,0,0,0,0,0,0,0,0,0,0,0,0,0,0,0,0,0,0,0,0,0,0,0,0,0,6659,6660,6661,6662,6663,0,0,0,0,0,0,0,6684,6685,6686,0,0,0,0,6684,2983,6686,0,0,0,0,0,0,0,0,0,0,0,0,0,0,0,
0,0,0,0,0,0,0,0,0,0,0,0,0,0,0,0,0,0,0,0,0,0,0,0,0,0,0,0,0,0,0,0,0,0,0,0,0,0,0,0,0,0,0,6684,6685,6686,0,0,0,0,0,0,0,0,0,0,0,0,0,0,0,0,0,0,0,0,0,0,0,0,0,0,0,0,0,0,0,0,0,0,
0,0,0,0,0,0,0,0,0,0,0,0,0,0,0,0,0,0,0,0,0,0,0,0,0,6684,6685,6686,0,0,0,0,0,0,0,0,0,0,0,0,0,0,0,0,0,0,0,0,0,0,0,0,0,0,0,0,0,0,0,0,0,0,0,0,0,0,0,0,0,0,0,0,0,0,0,0,0,0,0,0,
0,0,0,0,0,0,0,0,0,0,0,0,0,0,0,0,0,0,0,0,0,0,0,0,0,0,0,0,0,0,0,0,0,6634,6635,6636,6637,6638,0,6634,6635,6636,6637,6638,0,0,0,6634,6635,6636,6637,6638,0,0,0,0,0,0,0,0,0,0,0,0,0,0,0,0,0,0,0,0,0,0,0,0,0,0,0,0,
0,0,0,0,0,0,0,0,0,0,0,0,0,0,0,0,0,0,0,0,0,6684,6685,6686,0,0,0,0,0,0,0,0,0,6659,6660,6661,6662,6663,0,6659,6660,6661,6662,6663,0,0,0,6659,6660,6661,6662,6663,0,0,0,0,0,0,0,0,0,0,0,0,0,0,0,0,0,0,0,0,0,0,0,0,0,0,0,0,
0,0,0,0,0,0,0,0,0,0,0,0,0,0,0,0,0,0,0,0,6684,6685,6686,0,0,0,0,0,0,0,0,0,0,0,0,0,0,0,0,0,0,0,0,0,0,0,0,0,0,0,0,0,0,0,0,0,0,0,0,0,0,0,0,0,0,0,0,0,0,0,0,0,0,0,0,0,0,0,0,0,
0,0,0,0,0,0,0,0,0,0,0,0,0,0,0,0,0,0,0,0,5502,0,0,0,0,0,0,0,0,0,0,0,0,0,0,0,0,0,0,0,0,0,0,0,0,0,0,0,0,0,0,0,0,0,0,0,0,0,6684,6685,6686,0,0,0,0,0,0,0,0,0,0,0,0,0,0,0,0,0,0,0,
0,0,0,0,0,0,0,0,0,0,0,0,0,0,1057,0,0,0,0,0,5527,0,0,0,0,0,0,0,0,0,0,0,0,0,0,0,0,0,0,0,0,0,0,0,0,0,0,0,0,0,0,0,0,0,0,0,0,0,0,0,0,0,0,0,0,0,0,0,0,0,0,0,0,0,0,0,0,0,0,0,
0,0,0,0,0,0,0,0,0,0,0,0,0,0,1057,6055,6056,0,0,0,5552,0,0,0,0,0,0,0,0,0,0,0,0,0,0,0,0,0,0,0,0,0,0,0,0,0,0,0,0,0,0,0,0,0,0,0,0,0,0,0,0,0,0,0,0,0,0,0,0,0,0,0,0,0,0,0,0,0,0,0,
0,0,0,0,0,0,0,0,0,0,0,0,0,0,6079,6080,6081,6082,0,0,0,0,0,0,0,0,0,0,0,0,0,0,0,0,0,0,0,0,0,0,0,0,0,0,0,0,0,0,0,0,0,0,0,0,0,0,0,0,0,0,0,0,0,0,0,0,0,0,0,0,0,0,0,0,0,0,0,0,0,0,
0,0,0,0,0,0,0,0,0,0,0,0,0,6103,6104,6105,6106,6107,6108,0,0,0,0,0,0,0,0,0,0,0,0,0,0,0,0,0,0,0,0,0,0,0,0,0,0,0,0,0,0,0,0,0,0,0,0,0,0,0,0,0,0,0,0,0,0,0,0,0,0,0,0,0,0,0,0,0,0,0,0,0,
0,0,0,0,0,0,0,0,0,0,0,0,0,6128,6129,6130,6131,6132,6133,0,0,0,0,0,0,0,0,0,0,0,0,0,0,0,0,0,0,0,0,0,0,0,0,0,0,0,0,0,0,0,0,0,0,0,0,0,0,0,0,0,0,0,0,0,0,0,0,0,0,0,0,0,0,0,0,0,0,0,0,0,
0,0,0,0,0,0,0,0,0,0,0,0,0,6153,6154,0,0,6157,6158,0,0,0,0,0,0,0,0,0,0,0,0,0,0,0,0,0,0,0,0,0,0,0,0,0,0,0,0,0,0,0,0,0,0,0,0,0,0,0,0,0,0,0,0,0,0,0,0,0,0,0,0,0,0,0,0,0,0,0,0,0,
0,0,0,0,0,0,0,0,0,0,0,0,0,6178,0,5329,5330,0,6183,0,0,0,0,0,0,0,0,0,0,0,0,0,0,0,0,0,0,0,0,0,0,0,0,0,0,0,0,0,0,0,0,0,0,0,0,0,0,0,0,0,0,0,0,0,0,0,0,0,0,0,0,0,0,0,0,0,0,0,0,0,
0,0,0,0,0,0,0,0,0,0,0,0,0,0,0,5354,5355,0,0,0,0,0,0,0,0,0,0,0,0,0,0,0,0,0,0,0,0,0,0,0,0,0,0,0,0,0,0,0,0,0,0,0,0,0,0,0,0,0,0,0,0,0,0,0,0,0,0,0,0,0,0,0,0,0,0,0,0,0,0,0,
0,0,0,0,0,0,0,0,0,0,0,0,0,0,0,5379,5380,0,0,0,0,0,0,0,0,0,0,0,0,0,0,0,0,0,0,0,0,0,0,0,0,0,0,0,0,0,0,0,0,0,0,0,0,0,0,0,0,0,0,0,0,0,0,0,0,0,0,0,0,0,0,0,0,0,0,0,0,0,0,0,
0,0,0,0,0,0,0,0,0,0,0,0,0,0,0,0,0,0,0,0,0,0,0,0,0,0,0,0,0,0,0,0,0,0,0,0,0,0,0,0,0,0,0,0,0,0,0,0,0,0,0,0,0,0,0,0,0,0,0,0,0,0,0,0,0,0,0,0,0,0,0,0,0,0,0,0,0,0,0,0,
0,0,0,0,0,0,0,0,0,0,0,0,0,0,0,0,0,0,0,0,0,0,0,0,0,0,0,0,0,0,0,0,0,0,0,0,0,0,0,0,0,0,0,0,0,0,0,0,0,0,0,0,0,0,0,0,0,0,0,0,0,0,0,0,0,0,0,0,0,0,0,0,0,0,0,0,0,0,0,0,
0,0,0,0,0,0,0,0,0,0,0,0,0,0,0,0,0,0,0,0,0,0,0,0,0,0,0,0,0,0,0,0,0,0,0,0,0,0,0,0,0,0,0,0,0,0,0,0,0,0,0,0,0,0,0,0,0,0,0,0,0,0,0,0,0,0,0,0,0,0,0,0,0,0,0,0,0,0,0,0,
0,0,0,0,0,0,0,0,0,0,0,0,0,0,0,0,0,0,0,0,0,0,0,0,0,0,0,0,0,0,0,0,0,0,0,0,0,0,0,0,0,0,0,0,0,0,0,0,0,0,0,0,0,0,0,0,0,0,0,0,0,0,0,0,0,0,0,0,0,0,0,0,0,0,0,0,0,0,0,0,
0,0,0,0,0,0,0,0,0,0,0,0,0,0,0,0,0,0,0,0,0,0,0,0,0,0,0,0,0,0,0,0,0,0,0,0,0,0,0,0,0,0,0,0,0,0,0,0,0,0,0,0,0,0,0,0,0,0,0,0,0,0,0,0,0,0,0,0,0,0,0,0,0,0,0,0,0,0,0,0,
0,0,0,0,0,0,0,0,0,0,0,0,0,0,0,0,0,0,0,0,0,0,0,0,0,0,0,0,0,0,0,0,0,0,0,0,0,0,0,0,0,0,0,0,0,0,0,0,0,0,0,0,0,0,0,0,0,0,0,0,0,0,0,0,0,0,0,0,0,0,0,0,0,0,0,0,0,0,0,0,
0,0,0,0,0,0,0,0,0,0,0,0,0,0,0,0,0,0,0,0,0,0,0,0,0,0,0,0,0,0,0,0,0,0,0,0,0,0,0,0,0,0,0,0,0,0,0,0,0,0,0,0,0,0,0,0,0,0,0,0,0,0,0,0,0,0,0,0,0,0,0,0,0,0,0,0,0,0,0,0,
0,0,0,0,0,0,0,0,0,0,0,0,0,0,0,0,0,0,0,0,0,0,0,0,0,0,0,0,0,0,0,0,0,0,0,0,0,0,0,0,0,0,0,0,0,0,0,0,0,0,0,0,0,0,0,0,0,0,0,0,0,0,0,0,0,0,0,0,0,0,0,0,0,0,0,0,0,0,0,0,
0,0,0,0,0,0,0,0,0,0,0,0,0,0,0,0,0,0,0,0,0,0,0,0,0,0,0,0,0,0,0,0,0,0,0,0,0,0,0,0,0,0,0,0,0,0,0,0,0,0,0,0,0,0,0,0,0,0,0,0,0,0,0,0,0,0,0,0,0,0,0,0,0,0,0,0,0,0,0,0,
0,0,0,0,0,0,0,0,0,0,0,0,0,0,0,0,0,0,0,0,0,0,0,0,0,0,0,0,0,0,0,0,0,0,0,0,0,0,0,0,0,0,0,0,0,0,0,0,0,0,0,0,0,0,0,0,0,0,0,0,0,0,0,0,0,0,0,0,0,0,0,0,0,0,0,0,0,0,0,0,
0,0,0,0,0,0,0,0,0,0,0,0,0,0,0,0,0,0,0,0,0,0,0,0,0,0,0,0,0,0,0,0,0,0,0,0,0,0,0,0,0,0,0,0,0,0,0,0,0,0,0,0,0,0,0,0,0,0,0,0,0,0,0,0,0,0,0,0,0,0,0,0,0,0,0,0,0,0,0,0,
0,0,0,0,0,0,0,0,0,0,0,0,0,0,0,0,0,0,0,0,0,0,0,0,0,0,0,0,0,0,0,0,0,0,0,0,0,0,0,0,0,0,0,0,0,0,0,0,0,0,0,0,0,0,0,0,0,0,0,0,0,0,0,0,0,0,0,3432,3433,3432,3432,3432,3432,3432,3432,3432,3432,3432,3433,0,
0,0,0,0,0,0,0,0,0,0,0,0,0,0,0,0,0,0,0,0,0,0,0,0,0,0,0,0,0,0,0,0,0,0,0,0,0,0,0,0,0,0,0,0,0,0,0,0,0,0,0,0,0,0,0,0,0,0,0,0,0,0,0,0,0,3432,3432,3432,3433,3439,3432,3432,3433,3432,3433,3433,0,3432,3433,0,
0,0,0,0,0,0,0,0,0,0,0,0,0,0,0,0,0,0,0,0,0,0,0,0,0,0,0,0,0,0,0,0,0,0,0,0,0,0,0,0,0,0,0,0,0,0,0,0,0,0,0,0,0,0,0,0,0,0,0,0,0,0,0,3432,3432,3432,3433,3465,3489,3489,3489,3489,3489,3489,3483,3483,3463,3432,3432,3433,
0,0,0,0,0,0,0,0,0,0,0,0,0,0,0,0,0,0,0,0,0,0,0,0,0,0,0,0,0,0,0,0,0,0,0,0,0,0,0,0,0,0,0,0,0,0,0,0,0,0,0,0,0,0,0,0,0,0,0,0,0,3432,3432,3432,3433,3501,3501,3502,0,0,0,0,0,0,0,0,3488,3489,3489,3463,
0,0,0,0,0,0,0,0,0,0,0,0,0,0,0,0,0,0,0,0,0,0,0,0,0,0,0,0,0,0,0,0,0,0,0,0,0,0,0,0,0,0,0,0,0,0,0,0,0,0,0,0,0,0,0,0,0,0,0,0,3432,3432,3433,3477,3478,0,0,0,0,0,0,0,0,0,0,0,3485,0,0,3488,
0,0,0,0,0,0,0,0,0,0,0,0,0,0,0,0,0,0,0,0,0,0,0,0,0,0,0,0,0,0,0,0,0,0,0,0,0,0,0,0,0,0,0,0,0,0,0,0,0,0,0,0,0,0,0,0,0,0,0,3432,3432,3433,3439,3453,0,0,0,0,0,0,0,0,0,0,0,0,0,0,0,0,
0,0,0,0,0,0,0,0,0,0,0,0,0,0,0,0,0,0,0,0,0,0,0,0,0,0,0,0,0,0,0,0,0,0,0,0,0,0,0,0,0,0,0,0,0,0,0,0,0,0,0,0,0,0,0,0,0,0,0,0,0,3477,3501,3502,0,0,0,0,0,0,0,0,0,0,0,0,0,0,0,0,
0,0,0,0,0,0,0,0,0,0,0,0,0,0,0,0,0,0,0,0,0,0,0,0,0,0,0,0,0,0,0,0,0,0,0,0,0,0,0,0,0,0,0,0,0,0,0,0,0,0,0,0,0,0,0,0,0,0,3432,3432,3433,3447,0,0,3485,0,0,0,0,0,0,0,0,0,0,0,0,0,0,0,
0,0,0,0,0,0,0,0,0,0,0,0,0,0,0,0,0,0,0,0,0,0,0,0,0,0,0,0,0,0,0,0,0,0,0,0,0,0,0,0,0,0,0,0,0,0,0,0,0,0,0,0,0,0,0,0,0,0,3432,3433,3433,3453,0,0,0,0,3485,0,0,0,0,0,0,0,0,0,0,0,0,0,
0,0,0,0,0,0,0,0,0,0,0,0,0,0,0,0,0,0,0,0,0,0,0,0,0,0,0,0,0,0,0,0,0,0,0,0,0,0,0,0,0,0,0,0,0,0,0,0,0,0,0,0,0,0,0,0,0,0,3432,3433,3433,3427,3428,0,3485,0,0,0,0,0,0,0,0,0,0,0,0,0,0,0,
0,0,0,0,0,0,0,0,0,0,0,0,0,0,0,0,0,0,0,0,0,0,0,0,0,0,0,0,0,0,0,0,0,0,0,0,0,0,0,0,0,0,0,0,0,0,0,0,0,0,0,0,0,0,0,0,0,0,0,0,3439,3439,3453,0,0,3485,0,0,0,0,0,0,0,0,0,0,0,0,0,0,
0,0,0,0,0,0,0,0,0,0,0,0,0,0,0,0,0,0,0,0,0,0,0,0,0,0,0,0,0,0,0,0,0,0,0,0,0,0,0,0,0,0,0,0,0,0,0,0,0,0,0,0,0,0,0,0,0,0,0,3432,3433,3439,3453,0,0,3485,0,0,0,0,0,0,0,0,0,0,0,0,0,0,
0,0,0,0,0,0,0,0,0,0,0,0,0,0,0,0,0,0,0,0,0,0,0,0,0,0,0,0,0,0,0,0,0,0,0,0,0,0,0,0,0,0,0,0,0,0,0,0,0,0,0,0,0,0,0,0,0,0,3432,3433,3433,3477,3478,0,0,0,0,0,0,0,0,0,0,0,0,0,0,0,0,0,
0,0,0,0,0,0,0,0,0,0,0,0,0,0,0,0,0,0,0,0,0,0,0,0,0,0,0,0,0,0,0,0,0,0,0,0,0,0,0,0,0,0,0,0,0,0,0,0,0,0,0,0,0,0,0,0,0,3432,3432,3432,3433,3453,0,0,0,0,0,0,0,0,0,0,0,0,0,0,0,0,0,0,
0,0,0,0,0,0,0,0,0,0,0,0,0,0,0,0,0,0,0,0,0,0,0,0,0,0,0,0,0,0,0,0,0,0,0,0,0,0,0,0,0,0,0,0,0,0,0,0,0,0,0,0,0,0,0,0,0,3432,3432,3432,3433,3453,0,0,3485,0,0,0,0,0,0,0,0,0,0,0,0,0,0,0,
0,0,0,0,0,0,0,0,0,0,0,0,0,0,0,0,0,0,0,0,0,0,0,0,0,0,0,0,0,0,0,0,0,0,0,0,0,0,0,0,0,0,0,0,0,0,0,0,0,0,0,0,0,0,0,0,0,3432,3432,3459,3483,3484,0,0,0,0,0,0,0,0,0,0,0,0,0,0,0,0,0,0
</data>
 </layer>
 <layer id="14" name="Capa de patrones 9" width="80" height="50">
  <data encoding="csv">
0,0,0,0,0,0,0,0,0,0,0,0,0,0,0,0,0,0,0,0,0,0,0,0,0,0,0,0,0,0,0,0,0,0,0,0,0,0,0,0,0,0,0,0,0,0,0,0,0,0,0,0,0,0,0,0,0,0,0,0,0,0,0,0,0,0,0,0,0,0,0,0,0,0,0,0,0,0,0,0,
0,0,0,0,0,0,0,0,0,0,0,0,0,0,0,0,0,0,0,0,0,0,0,0,0,0,0,0,0,0,0,0,0,0,0,0,0,0,0,0,0,0,0,0,0,0,0,0,0,0,0,0,0,0,0,0,0,0,0,0,0,0,0,0,0,0,0,0,0,0,0,0,0,0,0,0,0,0,0,0,
0,0,0,0,0,0,0,0,0,0,0,0,0,0,0,0,0,0,0,0,0,0,0,0,0,0,0,0,0,0,0,0,0,0,0,0,0,0,0,0,0,0,0,0,0,0,0,0,0,0,0,0,0,0,0,0,0,0,0,0,0,0,0,0,0,0,0,0,0,0,0,0,0,0,0,0,0,0,0,0,
0,0,0,0,0,0,0,0,0,0,0,0,0,0,0,0,0,0,0,0,0,0,0,0,0,0,0,0,0,0,0,0,0,0,0,0,0,0,0,0,0,0,0,0,0,0,0,0,0,0,0,0,0,0,0,0,0,0,0,0,0,0,0,0,0,0,0,0,0,0,0,0,0,0,0,0,0,0,0,0,
0,0,0,0,0,0,0,0,0,0,0,0,0,0,0,0,0,0,0,0,0,0,0,0,0,0,0,0,0,0,0,0,0,0,0,0,0,0,0,0,0,0,0,0,0,0,0,0,0,0,0,0,0,0,0,0,0,0,0,0,0,0,0,0,0,0,0,0,0,0,0,0,0,0,0,0,0,0,0,0,
0,0,0,0,0,0,0,0,0,0,0,0,0,0,0,0,0,0,0,0,0,0,0,0,0,0,0,0,0,0,0,0,0,0,0,0,0,0,0,0,0,0,0,0,0,0,0,0,0,0,0,0,0,0,0,0,0,0,0,0,0,0,0,0,0,0,0,0,0,0,0,0,0,0,0,0,0,0,0,0,
0,0,0,0,0,0,0,0,0,0,0,0,0,0,0,0,0,0,0,0,0,0,0,0,0,0,0,0,0,0,0,0,0,0,0,0,0,0,0,0,0,0,0,0,0,0,0,0,0,0,0,0,0,0,0,0,0,0,0,0,0,0,0,0,0,0,0,0,0,0,0,0,0,0,0,0,0,0,0,0,
0,0,0,0,0,0,0,0,0,0,0,0,0,0,0,0,0,0,0,0,0,0,0,0,0,0,0,0,0,0,0,0,0,0,0,0,0,0,0,0,0,0,0,0,0,0,0,0,0,0,0,0,0,0,0,0,0,0,0,0,0,0,0,0,0,0,0,0,0,0,0,0,0,0,0,0,0,0,0,0,
0,0,0,0,0,0,0,0,0,0,0,0,0,0,0,0,0,0,0,0,0,0,0,0,0,0,0,0,0,0,0,0,0,0,0,0,0,0,0,0,0,0,0,0,0,0,0,0,0,0,0,0,0,0,0,0,0,0,0,0,0,0,0,0,0,0,0,0,0,0,0,0,0,0,0,0,0,0,0,0,
0,0,0,0,0,0,0,0,0,0,0,0,0,0,0,0,0,0,0,0,0,0,0,0,0,0,0,0,0,0,0,0,0,0,0,0,0,0,0,0,0,0,0,0,0,0,0,0,0,0,0,0,0,0,0,0,0,0,0,0,0,0,0,0,0,0,0,0,0,0,0,0,0,0,0,0,0,0,0,0,
0,0,0,0,0,0,0,0,0,0,0,0,0,0,0,0,0,0,0,0,0,0,0,0,0,0,0,0,0,0,0,0,0,0,0,0,0,0,0,0,0,0,0,0,0,0,0,0,0,0,0,0,0,0,0,0,0,0,0,0,0,0,0,0,0,0,0,0,0,0,0,0,0,0,0,0,0,0,0,0,
0,0,0,0,0,0,0,0,0,0,0,0,0,0,0,0,0,0,0,0,0,0,0,0,0,0,0,0,0,0,0,0,0,0,0,0,0,0,0,0,0,0,0,0,0,0,0,0,0,0,0,0,0,0,0,0,0,0,0,0,0,0,0,0,0,0,0,0,0,0,0,0,0,0,0,0,0,0,0,0,
0,0,0,0,0,0,0,0,0,0,0,0,0,0,0,0,0,0,0,0,0,0,0,0,0,0,0,0,0,0,0,0,0,0,0,0,0,0,0,0,0,0,0,0,0,0,0,0,0,0,0,0,0,0,0,0,0,0,0,0,0,0,0,0,0,0,0,0,0,0,0,0,0,0,0,0,0,0,0,0,
0,0,0,0,0,0,0,0,0,0,0,0,0,0,0,0,0,0,0,0,0,0,0,0,0,0,0,0,0,0,0,0,0,0,0,0,0,0,0,0,0,0,0,0,0,0,0,0,0,0,0,0,0,0,0,0,0,0,0,0,0,0,0,0,0,0,0,0,0,0,0,0,0,0,0,0,0,0,0,0,
0,0,0,0,0,0,0,0,0,0,0,0,0,0,0,0,0,0,0,0,0,0,0,0,0,0,0,0,0,0,0,0,0,0,0,0,0,0,0,0,0,0,0,0,0,0,0,0,0,0,0,0,0,0,0,0,0,0,0,0,0,0,0,0,0,0,0,0,0,0,0,0,0,0,0,0,0,0,0,0,
0,0,0,0,0,0,0,0,0,0,0,0,0,0,0,0,0,0,0,0,0,0,0,0,0,0,0,0,0,0,0,0,0,0,0,0,0,0,0,0,0,0,0,0,0,0,0,0,0,0,0,0,0,0,0,0,0,0,0,0,0,0,0,0,0,0,0,0,0,0,0,0,0,0,0,0,0,0,0,0,
0,0,0,0,0,0,0,0,0,0,0,0,0,0,0,0,0,0,0,0,0,0,0,0,0,0,0,0,0,0,0,0,0,0,0,0,0,0,0,0,0,0,0,0,0,0,0,0,0,0,0,0,0,0,0,0,0,0,0,0,0,0,0,0,0,0,0,0,0,0,0,0,0,0,0,0,0,0,0,0,
0,0,0,0,0,0,0,0,0,0,0,0,0,0,0,0,0,0,0,0,0,0,0,0,0,0,0,0,0,0,0,0,0,0,0,0,0,0,0,0,0,0,0,0,0,0,0,0,0,0,0,0,0,0,0,0,0,0,0,0,0,0,0,0,0,0,0,0,0,0,0,0,0,0,0,0,0,0,0,0,
0,0,0,0,0,0,0,0,0,0,0,0,0,0,0,0,0,0,0,0,0,0,0,0,0,0,0,0,0,0,0,0,0,0,0,0,0,0,0,0,0,0,0,0,0,0,0,0,0,0,0,0,0,0,0,0,0,0,0,0,0,0,0,0,0,0,0,0,0,0,0,0,0,0,0,0,0,0,0,0,
0,0,0,0,0,0,0,0,0,0,0,0,0,0,0,0,0,0,0,0,0,0,0,0,0,0,0,0,0,0,0,0,0,0,0,0,0,0,0,0,0,0,0,0,0,0,0,0,0,0,0,0,0,0,0,0,0,0,0,0,0,0,0,0,0,0,0,0,0,0,0,0,0,0,0,0,0,0,0,0,
0,0,0,0,0,0,0,0,0,0,0,0,0,0,0,0,0,0,0,0,0,0,0,0,0,0,0,0,0,0,0,0,0,0,0,0,0,0,0,0,0,0,0,0,0,0,0,0,0,0,0,0,0,0,0,0,0,0,0,0,0,0,0,0,0,0,0,0,0,0,0,0,0,0,0,0,0,0,0,0,
0,0,0,0,0,0,0,0,0,0,0,0,0,0,0,0,0,0,0,0,0,0,0,0,0,0,0,0,0,0,0,0,0,0,0,0,0,0,0,0,0,0,0,0,0,0,0,0,0,0,0,0,0,0,0,0,0,0,0,0,0,0,0,0,0,0,0,0,0,0,0,0,0,0,0,0,0,0,0,0,
0,0,0,0,0,0,0,0,0,0,0,0,0,0,0,0,0,0,0,0,0,0,0,0,0,0,0,0,0,0,0,0,0,0,0,0,0,0,0,0,0,0,0,0,0,0,0,0,0,0,0,0,0,0,0,0,0,0,0,0,0,0,0,0,0,0,0,0,0,0,0,0,0,0,0,0,0,0,0,0,
0,0,0,0,0,0,0,0,0,0,0,0,0,0,0,0,0,0,0,0,0,0,0,0,0,0,0,0,0,0,0,0,0,0,0,0,0,0,0,0,0,0,0,0,0,0,0,0,0,0,0,0,0,0,0,0,0,0,0,0,0,0,0,0,0,0,0,0,0,0,0,0,0,0,0,0,0,0,0,0,
0,0,0,0,0,0,0,0,0,0,0,0,0,0,0,0,0,0,0,0,0,0,0,0,0,0,0,0,0,0,0,0,0,0,0,0,0,0,0,0,0,0,0,0,0,0,0,0,0,0,0,0,0,0,0,0,0,0,0,0,0,0,0,0,0,0,0,0,0,0,0,0,0,0,0,0,0,0,0,0,
0,0,0,0,0,0,0,0,0,0,0,0,0,0,0,0,0,0,0,0,0,0,0,0,0,0,0,0,0,0,0,0,0,0,0,0,0,0,0,0,0,0,0,0,0,0,0,0,0,0,0,0,0,0,0,0,0,0,0,0,0,0,0,0,0,0,0,0,0,0,0,0,0,0,0,0,0,0,0,0,
0,0,0,0,0,0,0,0,0,0,0,0,0,0,0,0,0,0,0,0,0,0,0,0,0,0,0,0,0,0,0,0,0,0,0,0,0,11441,11442,0,0,0,0,0,0,0,0,0,0,0,0,0,0,0,0,0,0,0,0,0,0,0,0,0,0,0,0,0,0,0,0,0,0,0,0,0,0,0,0,0,
0,0,0,0,0,0,0,0,0,0,0,0,0,0,0,0,0,0,0,0,0,0,0,0,0,0,0,0,0,0,0,0,0,0,0,0,0,11457,11458,0,0,0,0,0,0,0,0,0,0,0,0,0,0,0,0,0,0,0,0,0,0,0,0,0,0,0,0,0,0,0,0,0,0,0,0,0,0,0,0,0,
0,0,0,0,0,0,0,0,0,0,0,0,0,0,0,0,0,0,0,0,0,0,0,0,0,0,0,0,0,0,0,0,0,0,0,0,0,0,0,0,0,0,0,0,0,0,0,0,0,0,0,0,0,0,0,0,0,0,0,0,0,0,0,0,0,0,0,0,0,0,0,0,0,0,0,0,0,0,0,0,
0,0,0,0,0,0,0,0,0,0,0,0,0,0,0,0,0,0,0,0,0,0,0,0,0,0,0,0,0,0,0,0,0,0,0,0,0,0,0,0,0,0,0,0,0,0,0,0,0,0,0,0,0,0,0,0,0,0,0,0,0,0,0,0,0,0,0,0,0,0,0,0,0,0,0,0,0,0,0,0,
0,0,0,0,0,0,0,0,0,0,0,0,0,0,0,0,0,0,0,0,0,0,0,0,0,0,0,0,0,0,0,0,0,0,0,0,0,0,0,0,0,0,0,0,0,0,0,0,0,0,0,0,0,0,0,0,0,0,0,0,0,0,0,0,0,0,0,0,0,0,0,0,0,0,0,0,0,0,0,0,
0,0,0,0,0,0,0,0,0,0,0,0,0,0,0,0,0,0,0,0,0,0,0,0,0,0,0,0,0,0,0,0,0,0,0,0,0,0,0,0,0,0,0,0,0,0,0,0,0,0,0,0,0,0,0,0,0,0,0,0,0,0,0,0,0,0,0,0,0,0,0,0,0,0,0,0,0,0,0,0,
0,0,0,0,0,0,0,0,0,0,0,0,0,0,0,0,0,0,0,0,0,0,0,0,0,0,0,0,0,0,0,0,0,0,0,0,0,0,0,0,0,0,0,0,0,0,0,0,0,0,0,0,0,0,0,0,0,0,0,0,0,0,0,0,0,0,0,0,0,0,0,0,0,0,0,0,0,0,0,0,
0,0,0,0,0,0,0,0,0,0,0,0,0,0,0,0,0,0,0,0,0,0,0,0,0,0,0,0,0,0,0,0,0,0,0,0,0,0,0,0,0,0,0,0,0,0,0,0,0,0,0,0,0,0,0,0,0,0,0,0,0,0,0,0,0,0,0,0,0,0,0,0,0,0,0,0,0,0,0,0,
0,0,0,0,0,0,0,0,0,0,0,0,0,0,0,0,0,0,0,0,0,0,0,0,0,0,0,0,0,0,0,0,0,0,0,0,0,0,0,0,0,0,0,0,0,0,0,0,0,0,0,0,0,0,0,0,0,0,0,0,0,0,0,0,0,0,0,0,0,0,0,0,0,0,0,0,0,0,0,0,
0,0,0,0,0,0,0,0,0,0,0,0,0,0,0,0,0,0,0,0,0,0,0,0,0,0,0,0,0,0,0,0,0,0,0,0,0,0,0,0,0,0,0,0,0,0,0,0,0,0,0,0,0,0,0,0,0,0,0,0,0,0,0,0,0,0,0,0,0,0,0,0,0,0,0,0,0,0,0,0,
0,0,0,0,0,0,0,0,0,0,0,0,0,0,0,0,0,0,0,0,0,0,0,0,0,0,0,0,0,0,0,0,0,0,0,0,0,0,0,0,0,0,0,0,0,0,0,0,0,0,0,0,0,0,0,0,0,0,0,0,0,0,0,0,0,0,0,0,0,0,0,0,0,0,0,0,0,0,0,0,
0,0,0,0,0,0,0,0,0,0,0,0,0,0,0,0,0,0,0,0,0,0,0,0,0,0,0,0,0,0,0,0,0,0,0,0,0,0,0,0,0,0,0,0,0,0,0,0,0,0,0,0,0,0,0,0,0,0,0,0,0,0,0,0,0,0,0,0,0,0,0,0,0,0,0,0,0,0,0,0,
0,0,0,0,0,0,0,0,0,0,0,0,0,0,0,0,0,0,0,0,0,0,0,0,0,0,0,0,0,0,0,0,0,0,0,0,0,0,0,0,0,0,0,0,0,0,0,0,0,0,0,0,0,0,0,0,0,0,0,0,0,0,0,0,0,0,0,0,0,0,0,0,0,0,0,0,0,0,0,0,
0,0,0,0,0,0,0,0,0,0,0,0,0,0,0,0,0,0,0,0,0,0,0,0,0,0,0,0,0,0,0,0,0,0,0,0,0,0,0,0,0,0,0,0,0,0,0,0,0,0,0,0,0,0,0,0,0,0,0,0,0,0,0,0,0,0,0,0,0,0,0,0,0,0,0,0,0,0,0,0,
0,0,0,0,0,0,0,0,0,0,0,0,0,0,0,0,0,0,0,0,0,0,0,0,0,0,0,0,0,0,0,0,0,0,0,0,0,0,0,0,0,0,0,0,0,0,0,0,0,0,0,0,0,0,0,0,0,0,0,0,0,0,0,0,0,0,0,0,0,0,0,0,0,0,0,0,0,0,0,0,
0,0,0,0,0,0,0,0,0,0,0,0,0,0,0,0,0,0,0,0,0,0,0,0,0,0,0,0,0,0,0,0,0,0,0,0,0,0,0,0,0,0,0,0,0,0,0,0,0,0,0,0,0,0,0,0,0,0,0,0,0,0,0,0,0,0,0,0,0,0,0,0,0,0,0,0,0,0,0,0,
0,0,0,0,0,0,0,0,0,0,0,0,0,0,0,0,0,0,0,0,0,0,0,0,0,0,0,0,0,0,0,0,0,0,0,0,0,0,0,0,0,0,0,0,0,0,0,0,0,0,0,0,0,0,0,0,0,0,0,0,0,0,0,0,0,0,0,0,0,0,0,0,0,0,0,0,0,0,0,0,
0,0,0,0,0,0,0,0,0,0,0,0,0,0,0,0,0,0,0,0,0,0,0,0,0,0,0,0,0,0,0,0,0,0,0,0,0,0,0,0,0,0,0,0,0,0,0,0,0,0,0,0,0,0,0,0,0,0,0,0,0,0,0,0,0,0,0,0,0,0,0,0,0,0,0,0,0,0,0,0,
0,0,0,0,0,0,0,0,0,0,0,0,0,0,0,0,0,0,0,0,0,0,0,0,0,0,0,0,0,0,0,0,0,0,0,0,0,0,0,0,0,0,0,0,0,0,0,0,0,0,0,0,0,0,0,0,0,0,0,0,0,0,0,0,0,0,0,0,0,0,0,0,0,0,0,0,0,0,0,0,
0,0,0,0,0,0,0,0,0,0,0,0,0,0,0,0,0,0,0,0,0,0,0,0,0,0,0,0,0,0,0,0,0,0,0,0,0,0,0,0,0,0,0,0,0,0,0,0,0,0,0,0,0,0,0,0,0,0,0,0,0,0,0,0,0,0,0,0,0,0,0,0,0,0,0,0,0,0,0,0,
0,0,0,0,0,0,0,0,0,0,0,0,0,0,0,0,0,0,0,0,0,0,0,0,0,0,0,0,0,0,0,0,0,0,0,0,0,0,0,0,0,0,0,0,0,0,0,0,0,0,0,0,0,0,0,0,0,0,0,0,0,0,0,0,0,0,0,0,0,0,0,0,0,0,0,0,0,0,0,0,
0,0,0,0,0,0,0,0,0,0,0,0,0,0,0,0,0,0,0,0,0,0,0,0,0,0,0,0,0,0,0,0,0,0,0,0,0,0,0,0,0,0,0,0,0,0,0,0,0,0,0,0,0,0,0,0,0,0,0,0,0,0,0,0,0,0,0,0,0,0,0,0,0,0,0,0,0,0,0,0,
0,0,0,0,0,0,0,0,0,0,0,0,0,0,0,0,0,0,0,0,0,0,0,0,0,0,0,0,0,0,0,0,0,0,0,0,0,0,0,0,0,0,0,0,0,0,0,0,0,0,0,0,0,0,0,0,0,0,0,0,0,0,0,0,0,0,0,0,0,0,0,0,0,0,0,0,0,0,0,0,
0,0,0,0,0,0,0,0,0,0,0,0,0,0,0,0,0,0,0,0,0,0,0,0,0,0,0,0,0,0,0,0,0,0,0,0,0,0,0,0,0,0,0,0,0,0,0,0,0,0,0,0,0,0,0,0,0,0,0,0,0,0,0,0,0,0,0,0,0,0,0,0,0,0,0,0,0,0,0,0
</data>
 </layer>
</map>
